!!!!SEGMENT: pl-cz--i-8--007_danka--missa-es-benedictus.krn
!!!cenid: 18xx:727
!!!COM: Danka
!!!COM-rismid: pe30085946
!!!CDT: <1790->1810
!!!CNT:
!!!OPR: Missa Es
!!!OTL: Benedictus
!!!OMV: 007
!!!PDT: 1800
!!!AGN: Sacred; Mass
!!!SMS-siglum: PL-CZ
!!!SMS-shelfmark: I-8
!!!SMS-shelfwork: 001-007 M
!!!SMS-variant:
!!!SMS-altvar:
!!!NIFC-rismid: 300000103
!!!URL-scan: http://repozytorium.nifc.pl/skany/pl-cz-nut--i-8
!!!ONB-nifc: UWAGA: części Mszy: Kyrie, Gloria, Credo, Et incarnatus, Et resurrexit, Sanctus, Benedictus, Agnus Dei, Dona nobis
!!!AIN: 1 alto 2 clars 3 empty 1 fagot 1 flt 1 organ 1 tenor 2 violn 1 vox
!!!key:
**kern	**dynam	**kern	**dynam	**kern	**dynam	**kern	**kern	**kern	**text	**kern	**text	**kern	**kern	**dynam	**kern	**dynam	**kern	**dynam	**kern	**kern
*part13	*part13	*part12	*part12	*part11	*part11	*part10	*part9	*part8	*part8	*part7	*part7	*part6	*part5	*part5	*part4	*	*part3	*part3	*part2	*part1
*staff13	*	*staff12	*	*staff11	*	*staff10	*staff9	*staff8	*staff8	*staff7	*staff7	*staff6	*staff5	*	*staff4	*	*staff3	*	*staff2	*staff1
*Iorgan	*	*Ivioln	*	*Ivioln	*	*Iempty	*Itenor	*Ialto	*	*Ivox	*	*Iempty	*Iempty	*	*Ifagot	*	*Iclars	*	*Iclars	*Iflt
*I"Organo	*	*I"Violino IIdo	*	*I"Violino Primo.	*	*I"Baſso.	*I"Tenore	*I"Alto	*	*I"Canto	*	*I"Cornu Secondo in Es.	*I"Cornu Primo in Es.	*	*I"Fagotto Obligato.	*	*I"Clarinetto. IIdo in Es.	*	*I"Clarinetto Primo. in Dis	*I"Flauto
*I'org	*	*I'vl 2	*	*I'vl 1	*	*I'B	*I'T	*I'A	*	*I'C	*	*I'cor 2	*I'cor 1	*	*I'fag	*	*I'cl 2	*	*I'cl 1	*I'fl
*clefF4	*	*clefG2	*	*clefG2	*	*clefF4	*clefGv2	*clefC3	*	*clefC1	*	*clefG2	*clefG2	*	*clefF4	*	*clefG2	*	*clefG2	*clefG2
*	*	*	*	*	*	*	*	*	*	*	*	*ITrd5c9	*ITrd5c9	*	*	*	*ITrd1c2	*	*ITrd1c2	*
*k[a-e-b-]	*	*k[b-e-a-]	*	*k[b-e-a-]	*	*k[b-e-a-]	*k[b-e-a-]	*k[e-a-b-]	*	*k[b-e-a-]	*	*k[b-e-a-]	*k[b-e-a-]	*	*k[b-e-a-]	*	*k[b-e-a-]	*	*k[b-e-a-]	*k[b-e-a-]
*E-:	*	*E-:	*	*E-:	*	*E-:	*E-:	*E-:	*	*E-:	*	*E-:	*E-:	*	*E-:	*	*E-:	*	*E-:	*E-:
*M2/2	*	*M2/2	*	*M2/2	*	*M2/2	*M2/2	*M2/2	*	*M2/2	*	*M2/2	*M2/2	*	*M2/2	*	*M2/2	*	*M2/2	*M2/2
=1	=1	=1	=1	=1	=1	=1	=1	=1	=1	=1	=1	=1	=1	=1	=1	=1	=1	=1	=1	=1
*	*	*	*	*2\right	*	*	*	*	*	*	*	*	*	*	*	*	*	*	*	*
!	!	!	!	!	!	!	!	!	!	!LO:TX:a:t=51:problem=zapisane czerwonym atramentem	!	!	!	!	!LO:TX:a:t=P:problem=metrum zapisane jako "2"	!	!	!	!LO:TX:a:t=Adagio	!
!LO:TX:a:t=Adagio	!	!LO:TX:a:t=Adagio	!	!LO:TX:a:t=Adagio	!	!LO:TX:a:t=Benedictus Tacet	!LO:TX:a:t=Benedictus Tacet	!LO:TX:a:t=51.	!	!LO:TX:a:t=Adagio	!	!LO:TX:a:t=Adagio	!LO:TX:a:t=Adagio	!	!LO:TX:a:t=Adagio	!	!LO:TX:a:t=Adagio	!	!LO:TX:a:t=10	!
!LO:TX:a:t=P:problem=bemol a- zapisany na wysokości A-; bemole niejednoznacznie zapisane	!	!	!	!	!	!	!	!	!	!LO:TX:b:t=paus.:problem=zapisane czerwonym atramentem	!	!	!	!	!	!	!LO:TX:a:t=P:problem=w źródle błędny zapis transpozycji instrumentu - użyto klarnetu w stroju B	!	!LO:TX:a:t=P:problem=w źródle błędny zapis transpozycji instrumentu - użyto klarnetu w stroju B	!LO:TX:a:t=P:problem=brak nut partii fletu
!LO:TX:a:t=P:problem=metrum zapisane jako "2", które wygląda jak "Z"	!	!LO:TX:a:t=P:problem=metrum zapisane jako "2"	!	!LO:TX:a:t=P:problem=metrum zapisane jako "2"	!	!	!	!LO:TX:a:t=P:problem=metrum zapisane jako "2"	!	!LO:TX:a:t=Solo:problem=zapisane czerwonym atramentem	!	!LO:TX:a:t=P:problem=metrum zapisane jako "2"	!LO:TX:a:t=P:problem=metrum zapisane jako "2"	!	!	!	!LO:TX:a:t=P:problem=metrum zapisane jako "2"	!	!LO:TX:a:t=P:problem=metrum zapisane jako "2"	!
!	!	!	!	!	!	!	!	!	!	!LO:TX:a:t=P:problem=metrum zapisane jako "2"	!	!	!	!	!LO:TX:a:t=P:problem=bemole a- na wysokości A-. Bemole BB- i A- zapisane są pod liniami, na polach	!	!	!	!	!
4r	.	2g/	.	2ee-\	.	1ryy	1ryy	00r	.	1r	.	00r	00r	.	00r	.	00r	.	00r	1ryy
!LO:TX:a:t=P:problem=all\middle or right	!	!	!	!	!	!	!	!	!	!	!	!	!	!	!	!	!	!	!	!
4E-\	.	.	.	.	.	.	.	.	.	.	.	.	.	.	.	.	.	.	.	.
!	!	!	!	!LO:TX:a:t=P:problem=piano zapisane czerwonym atramentem	!LO:DY:b:t=piano	!	!	!	!	!	!	!	!	!	!	!	!	!	!	!
!	!	!	!	!LO:TX:a:t=P:problem=all\middle or right	!	!	!	!	!	!	!	!	!	!	!	!	!	!	!	!
4G\	.	(8g/L	.	(8ee-\L	p	.	.	.	.	.	.	.	.	.	.	.	.	.	.	.
.	.	8f/)	.	8dd\	.	.	.	.	.	.	.	.	.	.	.	.	.	.	.	.
4B-\	.	(8a-/	.	8ff\	.	.	.	.	.	.	.	.	.	.	.	.	.	.	.	.
.	.	8f/J)	.	8dd\J)	.	.	.	.	.	.	.	.	.	.	.	.	.	.	.	.
=2	=2	=2	=2	=2	=2	=2	=2	=2	=2	=2	=2	=2	=2	=2	=2	=2	=2	=2	=2	=2
4e-\	.	4.g/	.	4.ee-\	.	1ryy	1ryy	.	.	1r	.	.	.	.	.	.	.	.	.	1ryy
4E-\	.	.	.	.	.	.	.	.	.	.	.	.	.	.	.	.	.	.	.	.
.	.	8a-/	.	8cc\	.	.	.	.	.	.	.	.	.	.	.	.	.	.	.	.
2r	.	8a-/L	.	(8cc\L	.	.	.	.	.	.	.	.	.	.	.	.	.	.	.	.
.	.	(8g/	.	8b-\	.	.	.	.	.	.	.	.	.	.	.	.	.	.	.	.
.	.	8f/)	.	8a-\	.	.	.	.	.	.	.	.	.	.	.	.	.	.	.	.
.	.	8e-/J	.	8g\J)	.	.	.	.	.	.	.	.	.	.	.	.	.	.	.	.
=3	=3	=3	=3	=3	=3	=3	=3	=3	=3	=3	=3	=3	=3	=3	=3	=3	=3	=3	=3	=3
8r	.	4.e-/	.	4.g/	.	1ryy	1ryy	.	.	1r	.	.	.	.	.	.	.	.	.	1ryy
8E-\L	.	.	.	.	.	.	.	.	.	.	.	.	.	.	.	.	.	.	.	.
8G\	.	.	.	.	.	.	.	.	.	.	.	.	.	.	.	.	.	.	.	.
8E-\J	.	8g/	.	8b-/	.	.	.	.	.	.	.	.	.	.	.	.	.	.	.	.
4B-\	.	(8g/L	.	(8b-/L	.	.	.	.	.	.	.	.	.	.	.	.	.	.	.	.
.	.	8f/	.	8a-/	.	.	.	.	.	.	.	.	.	.	.	.	.	.	.	.
4BB-/	.	8e-/)	.	8g/	.	.	.	.	.	.	.	.	.	.	.	.	.	.	.	.
.	.	8d/J	.	8f/J)	.	.	.	.	.	.	.	.	.	.	.	.	.	.	.	.
!	!	!LO:LB:g=original	!	!	!	!	!	!	!	!	!	!	!	!	!	!	!	!	!	!
=4	=4	=4	=4	=4	=4	=4	=4	=4	=4	=4	=4	=4	=4	=4	=4	=4	=4	=4	=4	=4
8r	.	4.d/	.	4.B-/ 4.f	.	1ryy	1ryy	.	.	1r	.	.	.	.	.	.	.	.	.	1ryy
8BB-/L	.	.	.	.	.	.	.	.	.	.	.	.	.	.	.	.	.	.	.	.
8D/	.	.	.	.	.	.	.	.	.	.	.	.	.	.	.	.	.	.	.	.
8BB-/J	.	8f/	.	8a-/	.	.	.	.	.	.	.	.	.	.	.	.	.	.	.	.
8E-\L	.	(8f/L	.	(8a-/L	.	.	.	.	.	.	.	.	.	.	.	.	.	.	.	.
8E-\	.	8e-/	.	8g/	.	.	.	.	.	.	.	.	.	.	.	.	.	.	.	.
8A-\	.	8c/)	.	8a-/	.	.	.	.	.	.	.	.	.	.	.	.	.	.	.	.
8A-\J	.	8A-/J	.	8f/J)	.	.	.	.	.	.	.	.	.	.	.	.	.	.	.	.
=5	=5	=5	=5	=5	=5	=5	=5	=5	=5	=5	=5	=5	=5	=5	=5	=5	=5	=5	=5	=5
!LO:TX:a:t=P:problem=mixed beam	!	!	!	!	!	!	!	!	!	!	!	!	!	!	!	!	!	!	!	!
8B-\L	.	8A-/	.	(8f/L	.	1ryy	1ryy	00r	.	1r	.	0r	0r	.	00r	.	00r	.	00r	1ryy
8B-\	.	4G/	.	8e-/)	.	.	.	.	.	.	.	.	.	.	.	.	.	.	.	.
8BB-/	.	.	.	(8e-/	.	.	.	.	.	.	.	.	.	.	.	.	.	.	.	.
8BB-/J	.	8A-/	.	8d/J)	.	.	.	.	.	.	.	.	.	.	.	.	.	.	.	.
!	!	!	!	!LO:LB:g=original	!	!	!	!	!	!	!	!	!	!	!	!	!	!	!	!
4E-\	.	4G/	.	8e-/L	.	.	.	.	.	.	.	.	.	.	.	.	.	.	.	.
.	.	.	.	8B-/	.	.	.	.	.	.	.	.	.	.	.	.	.	.	.	.
4r	.	4r	.	8e-/|	.	.	.	.	.	.	.	.	.	.	.	.	.	.	.	.
.	.	.	.	8g/J|	.	.	.	.	.	.	.	.	.	.	.	.	.	.	.	.
!LO:LB:g=original	!	!	!	!	!	!	!	!	!	!	!	!	!	!	!	!	!	!	!	!
=6	=6	=6	=6	=6	=6	=6	=6	=6	=6	=6	=6	=6	=6	=6	=6	=6	=6	=6	=6	=6
4E-\	.	4.g/	.	4.b-/	.	1ryy	1ryy	.	.	1r	.	.	.	.	.	.	.	.	.	1ryy
4EE-/	.	.	.	.	.	.	.	.	.	.	.	.	.	.	.	.	.	.	.	.
.	.	8e-/	.	8g/	.	.	.	.	.	.	.	.	.	.	.	.	.	.	.	.
!	!	!LO:TX:a:t=P:problem=all\middle	!	!	!	!	!	!	!	!	!	!	!	!	!	!	!	!	!	!
4r	.	8cc\L	.	8ee-\L	.	.	.	.	.	.	.	.	.	.	.	.	.	.	.	.
.	.	(8b-\	.	(8dd\	.	.	.	.	.	.	.	.	.	.	.	.	.	.	.	.
4E-\	.	8a-\)	.	8cc\)	.	.	.	.	.	.	.	.	.	.	.	.	.	.	.	.
.	.	8g\J	.	8b-\J	.	.	.	.	.	.	.	.	.	.	.	.	.	.	.	.
=7	=7	=7	=7	=7	=7	=7	=7	=7	=7	=7	=7	=7	=7	=7	=7	=7	=7	=7	=7	=7
.	.	.	.	8qqb-/	.	.	.	.	.	.	.	.	.	.	.	.	.	.	.	.
4BB-/	.	4f/	.	4a-/	.	1ryy	1ryy	.	.	1r	.	2r	2r	.	.	.	.	.	.	1ryy
4E-\	.	4e-/	.	4g/	.	.	.	.	.	.	.	.	.	.	.	.	.	.	.	.
2r	.	2r	.	4r	.	.	.	.	.	.	.	4B-/	4B-/	.	.	.	.	.	.	.
.	.	.	.	8ff\L	.	.	.	.	.	.	.	4B-/	4B-/	.	.	.	.	.	.	.
!	!	!	!	!LO:TX:a:t=P:problem=oznaczenie forte oraz kolejne oznaczenia dynamiczne i wykonawcze zapisane czerwonym atramentem	!	!	!	!	!	!	!	!	!	!	!	!	!	!	!	!
!	!	!	!	!	!LO:DY:b:t=for	!	!	!	!	!	!	!	!	!	!	!	!	!	!	!
.	.	.	.	8gg\J	f	.	.	.	.	.	.	.	.	.	.	.	.	.	.	.
=8	=8	=8	=8	=8	=8	=8	=8	=8	=8	=8	=8	=8	=8	=8	=8	=8	=8	=8	=8	=8
*tremolo	*	*	*	*	*	*	*	*	*	*	*	*	*	*	*	*	*	*	*	*
8BB-/L	.	8d/L|	.	4aa-\	.	1ryy	1ryy	.	.	1r	.	1B-	1f	.	.	.	.	.	.	1ryy
!	!	!LO:TX:a:t=P:problem=nie do końca jednoznaczny zapis wysokości dźwięku - e-?	!	!	!	!	!	!	!	!	!	!	!	!	!	!	!	!	!	!
8BB-/	.	8f/|	.	.	.	.	.	.	.	.	.	.	.	.	.	.	.	.	.	.
8BB-/	.	8d/|	.	8ff\L	.	.	.	.	.	.	.	.	.	.	.	.	.	.	.	.
8BB-/J	.	8f/J|	.	8ee-\J	.	.	.	.	.	.	.	.	.	.	.	.	.	.	.	.
*2\right	*	*	*	*	*	*	*	*	*	*	*	*	*	*	*	*	*	*	*	*
8D\L	.	8d/L|	.	(16ee-\LL	.	.	.	.	.	.	.	.	.	.	.	.	.	.	.	.
.	.	.	.	16dd\	.	.	.	.	.	.	.	.	.	.	.	.	.	.	.	.
8D\	.	8f/|	.	16ff\	.	.	.	.	.	.	.	.	.	.	.	.	.	.	.	.
.	.	.	.	16ee-\JJ)	.	.	.	.	.	.	.	.	.	.	.	.	.	.	.	.
8D\	.	8d/|	.	(16dd\LL	.	.	.	.	.	.	.	.	.	.	.	.	.	.	.	.
.	.	.	.	16cc\	.	.	.	.	.	.	.	.	.	.	.	.	.	.	.	.
8D\J	.	8f/J|	.	16b-\	.	.	.	.	.	.	.	.	.	.	.	.	.	.	.	.
.	.	.	.	16a-\JJ)	.	.	.	.	.	.	.	.	.	.	.	.	.	.	.	.
!	!	!LO:LB:g=original	!	!	!	!	!	!	!	!	!	!	!	!	!	!	!	!	!	!
=9	=9	=9	=9	=9	=9	=9	=9	=9	=9	=9	=9	=9	=9	=9	=9	=9	=9	=9	=9	=9
8E-\L	.	8e-'/L	.	(8g\L	.	1ryy	1ryy	00r	.	1r	.	1e-	1g	.	0r	.	0r	.	0r	1ryy
8E-\	.	8g'/	.	8b-\)	.	.	.	.	.	.	.	.	.	.	.	.	.	.	.	.
8E-\	.	8e-'/	.	8ee-\|	.	.	.	.	.	.	.	.	.	.	.	.	.	.	.	.
8E-\J	.	8g'/J	.	8gg\J|	.	.	.	.	.	.	.	.	.	.	.	.	.	.	.	.
8G\L	.	8e-/L|	.	8bb-\L|	.	.	.	.	.	.	.	.	.	.	.	.	.	.	.	.
8G\	.	8g/|	.	8gg'\	.	.	.	.	.	.	.	.	.	.	.	.	.	.	.	.
8G\	.	8e-/|	.	8ee-\|	.	.	.	.	.	.	.	.	.	.	.	.	.	.	.	.
8G\J	.	8g/J|	.	8b-'\J	.	.	.	.	.	.	.	.	.	.	.	.	.	.	.	.
!	!	!	!	!LO:LB:g=original	!	!	!	!	!	!	!	!	!	!	!	!	!	!	!	!
*Xtremolo	*	*	*	*	*	*	*	*	*	*	*	*	*	*	*	*	*	*	*	*
=10	=10	=10	=10	=10	=10	=10	=10	=10	=10	=10	=10	=10	=10	=10	=10	=10	=10	=10	=10	=10
!	!	!	!	!	!	!	!	!	!	!	!	!	!LO:TX:a:t=P:problem=all\middle or left	!	!	!	!	!	!	!
8A-\L	.	4a-/	.	(8bn\L	.	1ryy	1ryy	.	.	1r	.	4E-/	4e-\	.	.	.	.	.	.	1ryy
8A-\	.	.	.	8cc\)	.	.	.	.	.	.	.	.	.	.	.	.	.	.	.	.
8F\	.	(8cc\L	.	(8aa-\	.	.	.	.	.	.	.	4r	4r	.	.	.	.	.	.	.
8F\J	.	8a-\J)	.	8ff\J)	.	.	.	.	.	.	.	.	.	.	.	.	.	.	.	.
!LO:TX:a:t=P:problem=mixed beam	!	!	!	!	!	!	!	!	!	!	!	!LO:TX:a:t=P:problem=all\middle or right	!	!	!	!	!	!	!	!
8B-\L	.	(8a-/L	.	(8ff\L	.	.	.	.	.	.	.	4e-\	4g\	.	.	.	.	.	.	.
8B-\	.	8g/)	.	8ee-\)	.	.	.	.	.	.	.	.	.	.	.	.	.	.	.	.
!	!	!	!	!	!	!	!	!	!	!	!	!LO:TX:a:t=Soli:problem=zapisane czerwonym atramentem	!LO:TX:a:t=Soli:problem=zapisane czerwonym atramentem	!	!	!	!	!	!	!
8BB-/	.	(8g/	.	(8ee-\	.	.	.	.	.	.	.	4B-/	4f\	.	.	.	.	.	.	.
8BB-/J	.	8f/J)	.	8dd\J)	.	.	.	.	.	.	.	.	.	.	.	.	.	.	.	.
=11	=11	=11	=11	=11	=11	=11	=11	=11	=11	=11	=11	=11	=11	=11	=11	=11	=11	=11	=11	=11
*	*	*^	*	*^	*	*	*	*	*	*	*	*	*	*	*	*	*	*	*	*
*	*	*cue	*	*	*cue	*	*	*	*	*	*	*	*	*	*	*	*	*	*	*	*	*
!	!	!	!	!	!	!	!	!	!	!	!	!	!	!	!	!	!LO:TX:a:t=Solo:problem=zapisane czerwonym atramentem	!	!LO:TX:a:t=Soli	!	!LO:TX:a:t=Soli:problem=zapisane czerwonym atramentem	!
!	!	!LO:TX:a:t=Clarinetti:problem=ta i kolejne adnotacje o instrumentach zapisane czerwonym atramentem	!	!	!	!LO:TX:a:t=Clarinetti Solo:problem=ta i kolejne adnotacje o instrumentach zapisane czerwonym atramentem	!	!	!	!	!	!	!	!	!	!	!	!	!	!	!LO:TX:a:t=P:problem=all\middle or right	!
!	!	!	!	!	!	!	!	!	!	!	!	!	!	!	!	!	!LO:TX:a:t=P:problem=all\middle or right	!	!	!	!	!
4E-\	.	4ree	4g/	.	4ryy	4ee-\	.	1ryy	1ryy	.	.	1r	.	4G/	4e-\	.	4E-\	.	4.g/	.	4ee-\	1ryy
4r	.	4g/	4rg	.	8b-/L	4re	.	.	.	.	.	.	.	8G/L	8e-\L	.	4EE-/	.	.	.	8b-\L	.
.	.	.	.	.	8b-/J	.	.	.	.	.	.	.	.	8G/J	8e-\J	.	.	.	8g/	.	8b-\J	.
!	!	!	!	!	!	!LO:N:vis=1	!	!	!	!	!	!	!	!	!	!	!	!	!	!	!	!
!	!	!	!	!	!	!LO:TX:b:t=½:problem=zapisane zwykłym atramentem i poprawione czerwonym	!	!	!	!	!	!	!	!	!	!	!	!	!	!	!	!
2r	.	8g/L	2re	.	4b-/	2r	.	.	.	.	.	.	.	4G/	4e-\	.	4r	.	4g/	.	4b-\	.
.	.	8g/J	.	.	.	.	.	.	.	.	.	.	.	.	.	.	.	.	.	.	.	.
!	!	!LO:N:vis=4	!	!	!	!	!	!	!	!	!	!	!	!	!	!	!	!	!LO:TX:a:t=P:problem=mixed beam	!	!	!
.	.	8b-/	.	.	8ee-/L	.	.	.	.	.	.	.	.	4e-\	4g\	.	4E-\	.	8g/L	.	(8ee-\L	.
!	!	!LO:N:vis=4	!	!	!	!	!	!	!	!	!	!	!	!	!	!	!	!	!LO:TX:a:t=P:problem=all\middle or right	!	!	!
.	.	8ee-/	.	.	8gg/J	.	.	.	.	.	.	.	.	.	.	.	.	.	8ee-\J	.	8gg\J)	.
!	!	!	!	!	!	!	!	!	!	!	!	!	!	!LO:LB:g=original	!LO:LB:g=original	!	!	!	!	!	!	!
=12	=12	=12	=12	=12	=12	=12	=12	=12	=12	=12	=12	=12	=12	=12	=12	=12	=12	=12	=12	=12	=12	=12
!LO:TX:a:t=15	!	!	!LO:TX:b:t=1:problem=ten i kolejne numery zapisane czerwonym atramentem	!	!	!LO:TX:b:t=1:problem=ten i kolejne numery w całym utworze zapisane czerwonym atramentem	!	!	!	!	!	!	!	!	!	!	!	!	!	!	!	!
00r	.	8ff/L	1re	.	8aa-/L	1rg	.	1ryy	1ryy	.	.	1r	.	4.B-/	4.f\	.	4B-\	.	(8ff\L	.	(8aa-\L	1ryy
.	.	8dd/	.	.	8ff/	.	.	.	.	.	.	.	.	.	.	.	.	.	8dd\	.	8ff\)	.
.	.	8ff/	.	.	8aa-/	.	.	.	.	.	.	.	.	.	.	.	4BB-/	.	8ff\	.	(8aa-\	.
.	.	8dd/J	.	.	8ff/J	.	.	.	.	.	.	.	.	8B-/	8f\	.	.	.	8dd\J)	.	8ff\J)	.
.	.	4ee-/	.	.	4gg/	.	.	.	.	.	.	.	.	4e-\	4g\	.	4E-\	.	4ee-\	.	4gg\	.
.	.	4g/	.	.	4ee-/	.	.	.	.	.	.	.	.	4E-/	4e-\	.	4G\	.	4g/	.	4ee-\	.
=13	=13	=13	=13	=13	=13	=13	=13	=13	=13	=13	=13	=13	=13	=13	=13	=13	=13	=13	=13	=13	=13	=13
!	!	!LO:TX:a:t=P:problem=główka nuty normalnej wielkości	!LO:TX:b:t=2	!	!	!LO:TX:b:t=2	!	!	!	!	!	!	!	!	!	!	!	!	!	!	!	!
.	.	4a-/	1re	.	4cc/	1rg	.	1ryy	1ryy	00r	.	1r	.	4E-/	4e-\	.	4A-\	.	4a-\	.	(4cc\	1ryy
.	.	4a-/	.	.	4ff/	.	.	.	.	.	.	.	.	4r	4r	.	4F\	.	(4a-\	.	4ff\	.
.	.	4g/	.	.	4ee-/	.	.	.	.	.	.	.	.	4e-\	4g\	.	4B-\	.	4g/	.	4ee-\)	.
!	!	!	!	!	!	!	!	!	!	!	!	!	!	!	!	!	!	!	!LO:TX:a:t=P:problem=na końcu tej pięciolinii zwykła kreska taktowa. Podwójna kreska na początku kolejnej pięciolinii	!	!	!
.	.	4f/	.	.	4dd/	.	.	.	.	.	.	.	.	4B-/	4f\	.	4BB-/	.	4f/)	.	4dd\	.
!	!	!	!	!	!	!	!	!	!	!	!	!	!	!	!	!	!	!	!LO:LB:g=original	!	!LO:LB:g=original	!
=14	=14	=14	=14	=14	=14	=14	=14	=14	=14	=14	=14	=14	=14	=14	=14	=14	=14	=14	=14	=14	=14	=14
!	!	!	!LO:TX:b:t=3	!	!	!LO:TX:b:t=3	!	!	!	!	!	!	!	!	!	!	!	!	!LO:TX:a:t=P:problem=na początku pięciolinii rozpoczynających się całym taktem podwójne kreski taktowe	!	!LO:TX:a:t=P:problem=na początku wszystkich pięciolinii podwójna kreska taktowa	!
.	.	4g/	1re	.	8ee-/L	1rg	.	1ryy	1ryy	.	.	1r	.	4E-/	4e-\	.	8e-'\L	.	4g/	.	(8ee-\L	1ryy
.	.	.	.	.	8dd/	.	.	.	.	.	.	.	.	.	.	.	8B-'\	.	.	.	8dd\	.
!	!	!	!	!	!	!	!	!	!	!	!	!	!	!LO:TX:a:t=P:problem=mixed beam	!	!	!	!	!LO:TX:a:t=P:problem=mixed beam	!	!	!
.	.	8g/L	.	.	8ee-/	.	.	.	.	.	.	.	.	8G/L	8e-\L	.	8G'\	.	(8g/L	.	8ee-\	.
.	.	8ee-/J	.	.	8gg/J	.	.	.	.	.	.	.	.	8e-\J	8g\J	.	8E-'\J	.	8ee-\J)	.	8gg\J)	.
.	.	4dd/	.	.	4ff/	.	.	.	.	.	.	.	.	4B-/	4f\	.	4BB-/	.	4dd\	.	4ff\	.
.	.	4ree	.	.	4rff	.	.	.	.	.	.	.	.	4r	4r	.	4r	.	4r	.	4r	.
!	!	!LO:LB:g=original	!LO:LB:g=original	!	!	!	!	!	!	!	!	!	!	!	!	!	!LO:LB:g=original	!	!	!	!	!
=15	=15	=15	=15	=15	=15	=15	=15	=15	=15	=15	=15	=15	=15	=15	=15	=15	=15	=15	=15	=15	=15	=15
!	!	!LO:TX:b:t=4	!	!	!	!LO:TX:b:t=4	!	!	!	!	!	!	!	!	!	!	!	!	!	!	!	!
.	.	4.g/	1re	.	4.ee-/	1rg	.	1ryy	1ryy	.	.	1r	.	4.G/	4.e-\	.	4E-\	.	4.g/	.	4.ee-\	1ryy
.	.	.	.	.	.	.	.	.	.	.	.	.	.	.	.	.	4EE-/	.	.	.	.	.
.	.	8g/	.	.	8b-/	.	.	.	.	.	.	.	.	8G/	8e-\	.	.	.	8g/	.	8b-\	.
.	.	4g/	.	.	4b-/	.	.	.	.	.	.	.	.	4G/	4e-\	.	4r	.	4g/	.	4b-\	.
.	.	(<8b-/L	.	.	8ee-/L	.	.	.	.	.	.	.	.	4G/	4e-\	.	4E-\	.	8b-\L	.	(8ee-\L	.
.	.	8ee-/J)	.	.	8gg/J	.	.	.	.	.	.	.	.	.	.	.	.	.	8ee-\J	.	8gg\J)	.
!	!	!	!	!	!	!	!	!	!	!	!	!	!	!	!LO:LB:g=original	!	!	!	!	!	!	!
=16	=16	=16	=16	=16	=16	=16	=16	=16	=16	=16	=16	=16	=16	=16	=16	=16	=16	=16	=16	=16	=16	=16
!	!	!	!LO:TX:b:t=5	!	!	!LO:TX:b:t=5	!	!	!	!	!	!	!	!	!	!	!	!	!	!	!	!
00r	.	8ff/L	1re	.	8aa-/L	1rg	.	1ryy	1ryy	.	.	1r	.	4B-/	4f\	.	4B-\	.	8ff\L	.	(8aa-\L	1ryy
.	.	8dd/	.	.	8ff/	.	.	.	.	.	.	.	.	.	.	.	.	.	(8dd\	.	8ff\	.
.	.	8ff/	.	.	8aa-/	.	.	.	.	.	.	.	.	8B-/L	8f\L	.	4BB-/	.	8ff\	.	8aa-\	.
.	.	8dd/J	.	.	8ff/J	.	.	.	.	.	.	.	.	8B-/J	8f\J	.	.	.	8dd\J)	.	8ff\J)	.
.	.	4ee-/	.	.	4gg/	.	.	.	.	.	.	.	.	4e-\	4g\	.	4E-\	.	4ee-\	.	4gg\	.
.	.	8ree	.	.	8rgg	.	.	.	.	.	.	.	.	8r	8r	.	4E-\	.	8r	.	8rcc	.
.	.	8ee-/	.	.	8gg/	.	.	.	.	.	.	.	.	8e-\	8g\	.	.	.	8ee-\	.	8gg\	.
!	!	!	!	!	!LO:LB:g=original	!LO:LB:g=original	!	!	!	!	!	!	!	!LO:LB:g=original	!	!	!	!	!	!	!	!
=17	=17	=17	=17	=17	=17	=17	=17	=17	=17	=17	=17	=17	=17	=17	=17	=17	=17	=17	=17	=17	=17	=17
!	!	!	!LO:TX:b:t=6	!	!	!LO:TX:b:t=6	!	!	!	!	!	!	!	!	!	!	!	!	!	!	!	!
.	.	4dd/	1re	.	8ff/L	1rg	.	1ryy	1ryy	00r	.	1r	.	4f\	4f\	.	4D\	.	4dd\	.	8ff\L	1ryy
.	.	.	.	.	8bb-/J	.	.	.	.	.	.	.	.	.	.	.	.	.	.	.	8bb-\J	.
.	.	16ff/LL	.	.	16aan/LL	.	.	.	.	.	.	.	.	4e-\	4g\	.	4E-\	.	16ff\LL	.	(16aa\LL	.
.	.	16ee-/	.	.	16gg/	.	.	.	.	.	.	.	.	.	.	.	.	.	(16ee-\	.	16gg\	.
.	.	16dd/	.	.	16ff/	.	.	.	.	.	.	.	.	.	.	.	.	.	16dd\)	.	16ff\)	.
.	.	16cc/JJ	.	.	16ee-/JJ	.	.	.	.	.	.	.	.	.	.	.	.	.	16cc\JJ	.	16ee-\JJ	.
.	.	4b-/	.	.	4dd/	.	.	.	.	.	.	.	.	4f\	4f\	.	4F\	.	4b-\	.	4dd\	.
.	.	4an/	.	.	4cc/	.	.	.	.	.	.	.	.	4f\	4f\	.	4FF/	.	4e-/	.	4cc\	.
!	!	!	!	!	!	!	!	!	!	!	!	!	!	!	!	!	!	!	!LO:LB:g=original	!	!LO:LB:g=original	!
=18	=18	=18	=18	=18	=18	=18	=18	=18	=18	=18	=18	=18	=18	=18	=18	=18	=18	=18	=18	=18	=18	=18
!	!	!	!LO:TX:a:t=7	!	!	!LO:TX:b:t=7	!	!	!	!	!	!	!	!	!	!	!	!	!	!	!	!
.	.	8d/	1rff	.	8b-/	1rg	.	1ryy	1ryy	.	.	1r	.	8B-/	8f\	.	8BB-/	.	8d/	.	8b-\|	1ryy
.	.	8r	.	.	8rdd	.	.	.	.	.	.	.	.	8r	8r	.	8r	.	8r	.	8r	.
.	.	8d/	.	.	8b-/	.	.	.	.	.	.	.	.	8B-/	8f\	.	8B-\	.	8d/	.	8b-\|	.
.	.	8r	.	.	8rcc	.	.	.	.	.	.	.	.	8r	8r	.	8r	.	8r	.	8r	.
.	.	4d/	.	.	4b-/	.	.	.	.	.	.	.	.	4B-/	4f\	.	4BB-/	.	4d/	.	4b-\|	.
!	!	!LO:TX:a:t=Corni	!	!	!	!	!	!	!	!	!	!	!	!	!	!	!	!	!	!	!	!
.	.	4r	.	.	4r	.	.	.	.	.	.	.	.	4r	4r	.	4r	.	4r	.	4rg	.
=19	=19	=19	=19	=19	=19	=19	=19	=19	=19	=19	=19	=19	=19	=19	=19	=19	=19	=19	=19	=19	=19	=19
!	!	!	!LO:TX:a:t=8	!	!LO:TX:a:t=Corni Solo	!	!	!	!	!	!	!	!	!	!	!	!	!	!LO:TX:a:t=4	!	!LO:TX:a:t=3.	!
!	!	!	!	!	!	!LO:TX:a:t=8	!	!	!	!	!	!	!	!	!	!	!	!	!	!	!	!
.	.	4B-/	1rdd	.	4f\	1rdd	.	1ryy	1ryy	.	.	1r	.	4B-/	4f\	.	4D\	.	00r	.	0r	1ryy
.	.	8B-/L	.	.	8f\L	.	.	.	.	.	.	.	.	8B-/L	8f\L	.	4BB-/	.	.	.	.	.
.	.	8B-/J	.	.	8f\J	.	.	.	.	.	.	.	.	8B-/J	8f\J	.	.	.	.	.	.	.
.	.	4B-/	.	.	4f\	.	.	.	.	.	.	.	.	4B-/	4f\	.	4D\	.	.	.	.	.
.	.	4e-/	.	.	4g\	.	.	.	.	.	.	.	.	4e-\	4g\	.	4E-\	.	.	.	.	.
!	!	!	!	!	!	!	!	!	!	!	!	!	!	!	!LO:LB:g=original	!	!LO:LB:g=original	!	!	!	!	!
=20	=20	=20	=20	=20	=20	=20	=20	=20	=20	=20	=20	=20	=20	=20	=20	=20	=20	=20	=20	=20	=20	=20
!	!	!	!LO:TX:a:t=9	!	!	!LO:TX:a:t=9	!	!	!	!	!	!	!	!LO:TX:a:t=P:problem=mixed beam	!	!	!	!	!	!	!	!
00r	.	8f/L	1rff	.	8a-\L	1rdd	.	1ryy	1ryy	.	.	1r	.	8f\L	8a-\L	.	4B-\	.	.	.	.	1ryy
.	.	8f/	.	.	8a-\	.	.	.	.	.	.	.	.	8f\	8a-\	.	.	.	.	.	.	.
.	.	8B-/	.	.	8f\	.	.	.	.	.	.	.	.	8B-/	8f\	.	4BB-/	.	.	.	.	.
.	.	8B-/J	.	.	8f\J	.	.	.	.	.	.	.	.	8B-/J	8f\J	.	.	.	.	.	.	.
.	.	4e-/	.	.	4g\	.	.	.	.	.	.	.	.	4e-\	4g\	.	4E-\	.	.	.	.	.
.	.	4B-/	.	.	4f\	.	.	.	.	.	.	.	.	4B-/	4f\	.	4r	.	.	.	.	.
!	!	!LO:LB:g=original	!LO:LB:g=original	!	!	!	!	!	!	!	!	!	!	!	!	!	!	!	!	!	!	!
=21	=21	=21	=21	=21	=21	=21	=21	=21	=21	=21	=21	=21	=21	=21	=21	=21	=21	=21	=21	=21	=21	=21
!	!	!	!LO:TX:a:t=10	!	!	!LO:TX:a:t=10	!	!	!	!	!	!	!	!	!	!	!	!	!	!	!	!
.	.	4G/	1ree	.	4e-\	1rdd	.	1ryy	1ryy	00r	.	1r	.	4G/	4e-\	.	4E-\	.	.	.	1r	1ryy
.	.	8B-/L	.	.	8f\L	.	.	.	.	.	.	.	.	8B-/L	(8f\L	.	4r	.	.	.	.	.
.	.	8e-/J	.	.	8g\J	.	.	.	.	.	.	.	.	8e-/J	8g\J)	.	.	.	.	.	.	.
!	!	!	!	!	!	!	!	!	!	!	!	!	!	!LO:LB:g=original	!	!	!	!	!	!	!	!
.	.	8g/L	.	.	8b-\L	.	.	.	.	.	.	.	.	(8g\L	(8b-\L	.	4D\	.	.	.	.	.
.	.	8f/	.	.	8a-\	.	.	.	.	.	.	.	.	8f\)	8a-\)	.	.	.	.	.	.	.
.	.	8f/	.	.	8a-\	.	.	.	.	.	.	.	.	(8f\	(8a-\	.	4E-\	.	.	.	.	.
.	.	8e-/J	.	.	8g\J	.	.	.	.	.	.	.	.	8e-\J)	8g\J)	.	.	.	.	.	.	.
=22	=22	=22	=22	=22	=22	=22	=22	=22	=22	=22	=22	=22	=22	=22	=22	=22	=22	=22	=22	=22	=22	=22
*	*	*	*	*	*	*	*	*	*	*	*	*	*	*2\right	*2\right	*	*	*	*	*	*	*
!	!	!	!LO:TX:a:t=11.	!	!	!LO:TX:a:t=11.	!	!	!	!	!	!	!	!	!	!	!LO:TX:a:t=P:problem=mixed beam	!	!	!	!	!
.	.	2e-/	1ree	.	2g\	1rdd	.	1ryy	1ryy	.	.	1r	.	(2e-\	(2g\	.	8BB-/L	.	.	.	2r	1ryy
.	.	.	.	.	.	.	.	.	.	.	.	.	.	.	.	.	8B-\	.	.	.	.	.
.	.	.	.	.	.	.	.	.	.	.	.	.	.	.	.	.	8G\	.	.	.	.	.
.	.	.	.	.	.	.	.	.	.	.	.	.	.	.	.	.	8E-\J	.	.	.	.	.
!	!	!	!	!	!LO:TX:a:t=Clarinetti Solo	!	!	!	!	!	!	!	!	!	!	!	!	!	!	!	!	!
.	.	4B-/	.	.	4f\	.	.	.	.	.	.	.	.	4B-\)|	4f\)|	.	4BB-/	.	.	.	4r	.
!	!	!LO:TX:a:t=Clarinetti	!	!	!	!	!	!	!	!	!	!	!	!	!	!	!	!	!	!	!	!
.	.	4b-\	.	.	4b-\	.	.	.	.	.	.	.	.	4r	4r	.	4r	.	.	.	4b-\	.
=23	=23	=23	=23	=23	=23	=23	=23	=23	=23	=23	=23	=23	=23	=23	=23	=23	=23	=23	=23	=23	=23	=23
!	!	!	!LO:TX:b:t=12	!	!	!	!	!	!	!	!	!	!	!	!	!	!	!	!	!	!	!
!	!	!	!	!	!	!LO:TX:b:t=12	!	!	!	!	!	!	!	!	!	!	!	!	!	!	!	!
.	.	4.ee-/	1re	.	4.ee-/	1rg	.	1ryy	1ryy	.	.	1r	.	4.G/	4.e-\	.	4E-\	.	4.g/	.	4.ee-\	1ryy
.	.	.	.	.	.	.	.	.	.	.	.	.	.	.	.	.	4EE-/	.	.	.	.	.
.	.	8b-/	.	.	8b-/	.	.	.	.	.	.	.	.	8G/	8e-\	.	.	.	8g/	.	8b-\	.
.	.	4b-/	.	.	4b-/	.	.	.	.	.	.	.	.	4G/	4e-\	.	4r	.	4g/	.	4b-\	.
.	.	8ee-/L	.	.	8ee-/L	.	.	.	.	.	.	.	.	4G/	4e-\	.	4E-\	.	8b-\L	.	8ee-\L	.
.	.	8gg/J	.	.	8gg/J	.	.	.	.	.	.	.	.	.	.	.	.	.	8ee-\J	.	8gg\J	.
!	!	!	!	!	!LO:LB:g=original	!LO:LB:g=original	!	!	!	!	!	!	!	!	!LO:LB:g=original	!	!	!	!	!	!	!
=24	=24	=24	=24	=24	=24	=24	=24	=24	=24	=24	=24	=24	=24	=24	=24	=24	=24	=24	=24	=24	=24	=24
!	!	!	!LO:TX:b:t=13	!	!	!LO:TX:b:t=13	!	!	!	!	!	!	!	!	!	!	!	!	!	!	!	!
0r	.	8aa-/L	1re	.	8aa-/L	1rg	.	1ryy	1ryy	.	.	1r	.	4B-/	4f\	.	4B-\	.	8ff\L	.	(8aa-\L	1ryy
.	.	8ff/	.	.	8ff/	.	.	.	.	.	.	.	.	.	.	.	.	.	(8dd\	.	8ff\	.
.	.	8aa-/	.	.	8aa-/	.	.	.	.	.	.	.	.	8B-/L	8f\L	.	4BB-/	.	8ff\)	.	8aa-\	.
.	.	8ff/J	.	.	8ff/J	.	.	.	.	.	.	.	.	8B-/J	8f\J	.	.	.	8dd\J	.	8ff\J)	.
.	.	4gg/	.	.	4gg/	.	.	.	.	.	.	.	.	4e-\	4g\	.	4E-\	.	4ee-\	.	4gg\|	.
.	.	4ee-/	.	.	4ee-/	.	.	.	.	.	.	.	.	4E-/	4e-\	.	4G\	.	4g/	.	4ee-\|	.
!	!	!	!	!	!	!	!	!	!	!	!	!	!	!	!	!	!LO:LB:g=original	!	!	!	!LO:LB:g=original	!
=25	=25	=25	=25	=25	=25	=25	=25	=25	=25	=25	=25	=25	=25	=25	=25	=25	=25	=25	=25	=25	=25	=25
!	!	!	!LO:TX:b:t=14	!	!	!LO:TX:b:t=14	!	!	!	!	!	!	!	!	!	!	!	!	!	!	!	!
.	.	8dd-X/L	1re	.	8dd-X/L	1rg	.	1ryy	1ryy	00r	.	1r	.	4E-/	4e-\	.	4A-\	.	4a-\	.	(8dd-X\L	1ryy
.	.	8cc/	.	.	8cc/	.	.	.	.	.	.	.	.	.	.	.	.	.	.	.	8cc\	.
.	.	8aa-/	.	.	8aa-/	.	.	.	.	.	.	.	.	4r	4r	.	4F\	.	(8cc\L	.	8aa-\	.
.	.	8ff/J	.	.	8ff/J	.	.	.	.	.	.	.	.	.	.	.	.	.	8a-\J)	.	8ff\J)	.
!	!	!	!	!	!	!	!	!	!	!	!	!	!	!	!	!	!	!	!LO:LB:g=original	!	!	!
.	.	8ff/L	.	.	8ff/L	.	.	.	.	.	.	.	.	4e-\	4g\	.	4B-\	.	(8a-\L	.	8ff\L	.
.	.	8ee-/	.	.	8ee-/	.	.	.	.	.	.	.	.	.	.	.	.	.	8g\)	.	(8ee-\	.
.	.	8ee-/	.	.	8ee-/	.	.	.	.	.	.	.	.	4B-/	4f\	.	4BB-/	.	(8g\	.	(8ee-\)	.
.	.	8ddn/J	.	.	8ddn/J	.	.	.	.	.	.	.	.	.	.	.	.	.	8f\J)	.	8dd\J)	.
=26	=26	=26	=26	=26	=26	=26	=26	=26	=26	=26	=26	=26	=26	=26	=26	=26	=26	=26	=26	=26	=26	=26
*	*	*	*	*	*	*	*	*	*	*	*	*	*	*	*	*	*	*	*	*	*2\right	*
1rA	.	2dd/	2rg	.	2dd/	2re	.	1ryy	1ryy	.	.	1r	.	2B-/	2f\	.	4E-/	.	(2f/	.	(2dd\	1ryy
.	.	.	.	.	.	.	.	.	.	.	.	.	.	.	.	.	8BB-/L	.	.	.	.	.
.	.	.	.	.	.	.	.	.	.	.	.	.	.	.	.	.	8GG/J	.	.	.	.	.
!	!	!	!LO:TX:a:t=P:problem=pod 4r kreska, która wygląda jak 1r	!	!	!	!	!	!	!	!	!	!	!	!	!	!	!	!	!	!	!
.	.	4ee-/	4r	.	4ee-/	4r	.	.	.	.	.	.	.	4G/	4e-\	.	4EE-/	.	4g/)	.	4ee-\)	.
!	!	!	!	!LO:DY:b:t=piano	!	!LO:TX:a:t=Violino.	!	!	!	!	!	!	!	!	!	!	!	!	!	!	!	!
.	.	4ree	4g/	p	4rgg	(>8b-\L	.	.	.	.	.	.	.	4r	4r	.	4r	.	4r	.	4r	.
.	.	.	.	.	.	8ee-\J)	.	.	.	.	.	.	.	.	.	.	.	.	.	.	.	.
*	*	*Xcue	*	*	*Xcue	*	*	*	*	*	*	*	*	*	*	*	*	*	*	*	*	*
!	!	!LO:LB:g=original	!LO:LB:g=original	!	!	!	!	!	!	!	!	!	!	!LO:LB:g=original	!	!	!	!	!	!	!	!
*	*	*v	*v	*	*	*	*	*	*	*	*	*	*	*	*	*	*	*	*	*	*	*
*	*	*	*	*v	*v	*	*	*	*	*	*	*	*	*	*	*	*	*	*	*	*
=27	=27	=27	=27	=27	=27	=27	=27	=27	=27	=27	=27	=27	=27	=27	=27	=27	=27	=27	=27	=27
4r	.	(8g/L	.	(8dd-X\L	.	1ryy	1ryy	.	.	1r	.	00r	00r	.	00r	.	00r	.	00r	1ryy
.	.	8a-/J)	.	8cc\J)	.	.	.	.	.	.	.	.	.	.	.	.	.	.	.	.
!LO:TX:a:t=P:problem=piano oraz kolejne oznaczenia dynamiczne zapisane czerwonym atramentem	!LO:DY:b:t=p&colon;	!	!	!	!	!	!	!	!	!	!	!	!	!	!	!	!	!	!	!
4A-\	p	2a-/	.	2cc\	.	.	.	.	.	.	.	.	.	.	.	.	.	.	.	.
4A-\	.	.	.	.	.	.	.	.	.	.	.	.	.	.	.	.	.	.	.	.
4A-\	.	(8a-/L	.	(8cc\L	.	.	.	.	.	.	.	.	.	.	.	.	.	.	.	.
.	.	8en/J)	.	8g\J)	.	.	.	.	.	.	.	.	.	.	.	.	.	.	.	.
!LO:LB:g=original	!	!	!	!	!	!	!	!	!	!	!	!	!	!	!	!	!	!	!	!
=28	=28	=28	=28	=28	=28	=28	=28	=28	=28	=28	=28	=28	=28	=28	=28	=28	=28	=28	=28	=28
!	!	!LO:SIC:s=(8en/L:v	!	!	!	!	!	!	!	!	!	!	!	!	!	!	!	!	!	!
4r	.	(8e-/L	.	(8g/L	.	1ryy	1ryy	.	.	1r	.	.	.	.	.	.	.	.	.	1ryy
.	.	8f/J)	.	8a-/J)	.	.	.	.	.	.	.	.	.	.	.	.	.	.	.	.
4B-\	.	2f/	.	2a-/	.	.	.	.	.	.	.	.	.	.	.	.	.	.	.	.
4B-\	.	.	.	.	.	.	.	.	.	.	.	.	.	.	.	.	.	.	.	.
4B-\	.	(8f/L	.	(8a-/L	.	.	.	.	.	.	.	.	.	.	.	.	.	.	.	.
.	.	8a-/J)	.	8cc/J)	.	.	.	.	.	.	.	.	.	.	.	.	.	.	.	.
=29	=29	=29	=29	=29	=29	=29	=29	=29	=29	=29	=29	=29	=29	=29	=29	=29	=29	=29	=29	=29
4r	.	(8a-/L	.	8cc\L	.	1ryy	1ryy	00r	.	1r	.	.	.	.	.	.	.	.	.	1ryy
.	.	8g/J)	.	8b-\J	.	.	.	.	.	.	.	.	.	.	.	.	.	.	.	.
4BB-/	.	2g/	.	2b-\	.	.	.	.	.	.	.	.	.	.	.	.	.	.	.	.
4BB-/	.	.	.	.	.	.	.	.	.	.	.	.	.	.	.	.	.	.	.	.
4BB-/	.	4d/	.	8b-/L	.	.	.	.	.	.	.	.	.	.	.	.	.	.	.	.
.	.	.	.	8f/J	.	.	.	.	.	.	.	.	.	.	.	.	.	.	.	.
!	!	!	!	!LO:LB:g=original	!	!	!	!	!	!	!	!	!	!	!	!	!	!	!	!
=30	=30	=30	=30	=30	=30	=30	=30	=30	=30	=30	=30	=30	=30	=30	=30	=30	=30	=30	=30	=30
4E-\	.	4e-X/	.	(8g\L	.	1ryy	1ryy	.	.	1r	.	.	.	.	.	.	.	.	.	1ryy
.	.	.	.	8b-\)	.	.	.	.	.	.	.	.	.	.	.	.	.	.	.	.
4r	.	(8g/L	.	(8ee-\	.	.	.	.	.	.	.	.	.	.	.	.	.	.	.	.
.	.	8f/J)	.	8dd\J)	.	.	.	.	.	.	.	.	.	.	.	.	.	.	.	.
4A-\	.	8a-/L	.	8cc\L	.	.	.	.	.	.	.	.	.	.	.	.	.	.	.	.
.	.	8g/	.	8b-\	.	.	.	.	.	.	.	.	.	.	.	.	.	.	.	.
4An\	.	8f/	.	8a-\	.	.	.	.	.	.	.	.	.	.	.	.	.	.	.	.
.	.	8e-/J	.	8g\J	.	.	.	.	.	.	.	.	.	.	.	.	.	.	.	.
=31	=31	=31	=31	=31	=31	=31	=31	=31	=31	=31	=31	=31	=31	=31	=31	=31	=31	=31	=31	=31
*	*	*	*	*^	*	*	*	*	*	*	*	*	*	*	*	*	*	*	*	*
*	*	*	*	*cue	*	*	*	*	*	*	*	*	*	*	*	*	*	*	*	*	*
4B-\	.	8e-/L	.	2ryy	16a-/LL	.	1ryy	1ryy	.	.	1r	.	2r	2r	.	1r	.	2r	.	2r	1ryy
.	.	.	.	.	16g/	.	.	.	.	.	.	.	.	.	.	.	.	.	.	.	.
.	.	16d/L	.	.	16f/	.	.	.	.	.	.	.	.	.	.	.	.	.	.	.	.
.	.	16e-/JJ	.	.	16g/JJ	.	.	.	.	.	.	.	.	.	.	.	.	.	.	.	.
4F\	.	4d/	.	.	4f/	.	.	.	.	.	.	.	.	.	.	.	.	.	.	.	.
!	!	!	!	!LO:TX:a:t=Clarinetti	!	!	!	!	!	!	!	!	!	!	!	!	!	!	!	!	!
4BB-/	.	2r	.	4ree	2rg	.	.	.	.	.	.	.	4r	4r	.	.	.	4r	.	4r	.
4r	.	.	.	4dd	.	.	.	.	.	.	.	.	4B-/	4f\	.	.	.	4dd\	.	4ff\	.
!	!	!LO:LB:g=original	!	!	!	!	!	!	!	!	!	!	!	!	!	!	!	!	!	!	!
=32	=32	=32	=32	=32	=32	=32	=32	=32	=32	=32	=32	=32	=32	=32	=32	=32	=32	=32	=32	=32	=32
*	*	*^	*	*	*	*	*	*	*	*	*	*	*	*	*	*	*	*	*	*	*
*	*	*cue	*	*	*	*	*	*	*	*	*	*	*	*	*	*	*	*	*	*	*	*
!	!	!	!LO:TX:b:t=1:problem=numery zapisane zwykłym atramentem do końca utworu	!	!	!	!	!	!	!	!	!	!	!	!	!	!	!	!	!	!	!
!	!	!LO:TX:a:t=Clarinetti	!	!	!	!LO:TX:b:t=1	!	!	!	!	!	!	!	!	!	!	!	!	!	!	!	!
00r	.	4f/	1re	.	4dd/	1rg	.	1ryy	1ryy	.	.	1r	.	4B-/	4f\	.	4BB-/	.	4dd\	.	4ff\	1ryy
.	.	.	.	.	8qff/	.	.	.	.	.	.	.	.	.	.	.	.	.	8qff/	.	8qaa-/	.
.	.	8.g/L	.	.	8.ee-/L	.	.	.	.	.	.	.	.	4G/	4e-\	.	4B-\	.	8.ee-\L	.	8.ggt\L	.
.	.	32f/LL	.	.	32dd/LL	.	.	.	.	.	.	.	.	.	.	.	.	.	(32dd\LL	.	(32ff\LL	.
.	.	32g/JJJ	.	.	32ee-/JJJ	.	.	.	.	.	.	.	.	.	.	.	.	.	32ee-\JJJ)	.	32gg\JJJ)	.
.	.	4a-/	.	.	4ff/	.	.	.	.	.	.	.	.	4B-/	4f\	.	4BB-/	.	4ff\	.	4aa-\	.
.	.	4r	.	.	4rff	.	.	.	.	.	.	.	.	4r	4r	.	4r	.	4r	.	4r	.
*	*	*Xcue	*	*	*Xcue	*	*	*	*	*	*	*	*	*	*	*	*	*	*	*	*	*
!	!	!	!	!	!	!	!	!	!	!	!	!	!	!	!LO:LB:g=original	!	!	!	!	!	!LO:LB:g=original	!
*	*	*v	*v	*	*	*	*	*	*	*	*	*	*	*	*	*	*	*	*	*	*	*
*	*	*	*	*v	*v	*	*	*	*	*	*	*	*	*	*	*	*	*	*	*	*
=33	=33	=33	=33	=33	=33	=33	=33	=33	=33	=33	=33	=33	=33	=33	=33	=33	=33	=33	=33	=33
!	!	!	!	!LO:TX:a:t=dolce	!	!	!	!	!	!	!	!	!	!	!	!	!	!	!	!
.	.	8d/L|	.	4ff\	.	1ryy	1ryy	00r	.	1r	.	1r	1r	.	1r	.	1r	.	1r	1ryy
.	.	8d/|	.	.	.	.	.	.	.	.	.	.	.	.	.	.	.	.	.	.
.	.	8f/|	.	16dd\LL	.	.	.	.	.	.	.	.	.	.	.	.	.	.	.	.
!	!	!	!	!	!LO:DY:a:t=piano	!	!	!	!	!	!	!	!	!	!	!	!	!	!	!
.	.	.	.	16cc\	p	.	.	.	.	.	.	.	.	.	.	.	.	.	.	.
.	.	8f/J|	.	16dd\	.	.	.	.	.	.	.	.	.	.	.	.	.	.	.	.
.	.	.	.	16ee-\JJ	.	.	.	.	.	.	.	.	.	.	.	.	.	.	.	.
.	.	8d'/L	.	16ff\LL	.	.	.	.	.	.	.	.	.	.	.	.	.	.	.	.
.	.	.	.	16gg\	.	.	.	.	.	.	.	.	.	.	.	.	.	.	.	.
.	.	8d'/	.	16ff\	.	.	.	.	.	.	.	.	.	.	.	.	.	.	.	.
.	.	.	.	16ee-\JJ	.	.	.	.	.	.	.	.	.	.	.	.	.	.	.	.
.	.	8f'/	.	16dd\LL	.	.	.	.	.	.	.	.	.	.	.	.	.	.	.	.
.	.	.	.	16cc\	.	.	.	.	.	.	.	.	.	.	.	.	.	.	.	.
.	.	8f'/J	.	16b-\	.	.	.	.	.	.	.	.	.	.	.	.	.	.	.	.
.	.	.	.	16a-\JJ	.	.	.	.	.	.	.	.	.	.	.	.	.	.	.	.
!	!	!	!	!	!	!	!	!	!	!	!	!	!	!	!	!	!LO:LB:g=original	!	!	!
=34	=34	=34	=34	=34	=34	=34	=34	=34	=34	=34	=34	=34	=34	=34	=34	=34	=34	=34	=34	=34
*	*	*^	*	*^	*	*	*	*	*	*	*	*	*	*	*	*	*	*	*	*
*	*	*cue	*	*	*cue	*	*	*	*	*	*	*	*	*	*	*	*	*	*	*	*	*
!	!	!LO:TX:b:t=2	!	!	!LO:TX:a:t=Clarinetto	!LO:TX:b:t=1	!	!	!	!	!	!	!	!	!	!	!	!	!	!	!	!
.	.	4g/	1re	.	4ee-/	1rg	.	1ryy	1ryy	.	.	1r	.	4G\	4e-\	.	4BB-/	.	4g/	.	4ee-\	1ryy
.	.	.	.	.	8qgg/	.	.	.	.	.	.	.	.	.	.	.	.	.	.	.	8qgg/	.
.	.	8.a-/L	.	.	8.ff/L	.	.	.	.	.	.	.	.	4B-\	4f\	.	4B-\	.	(8.a-/L	.	8.ffT\L	.
.	.	32g/LL	.	.	32ee-/LL	.	.	.	.	.	.	.	.	.	.	.	.	.	32g/LL	.	(32ee-\LL	.
.	.	32a-/JJJ	.	.	32ff/JJJ	.	.	.	.	.	.	.	.	.	.	.	.	.	32a-/JJJ)	.	32ff\JJJ)	.
.	.	4b-/	.	.	4gg/	.	.	.	.	.	.	.	.	4e-\	4g\	.	4BB-/	.	4b-\	.	4gg\	.
.	.	4r	.	.	4rbbb	.	.	.	.	.	.	.	.	4r	4r	.	4r	.	4r	.	4r	.
*	*	*Xcue	*	*	*Xcue	*	*	*	*	*	*	*	*	*	*	*	*	*	*	*	*	*
!	!	!	!	!	!LO:LB:g=original	!LO:LB:g=original	!	!	!	!	!	!	!	!	!	!	!	!	!	!	!	!
*	*	*v	*v	*	*	*	*	*	*	*	*	*	*	*	*	*	*	*	*	*	*	*
*	*	*	*	*v	*v	*	*	*	*	*	*	*	*	*	*	*	*	*	*	*	*
=35	=35	=35	=35	=35	=35	=35	=35	=35	=35	=35	=35	=35	=35	=35	=35	=35	=35	=35	=35	=35
.	.	8e-'/L	.	4gg\	.	1ryy	1ryy	.	.	1r	.	1r	1r	.	1r	.	1r	.	1r	1ryy
.	.	8e-'/	.	.	.	.	.	.	.	.	.	.	.	.	.	.	.	.	.	.
!	!	!	!	!LO:TX:a:t=dolce:problem=| pod "dolce"	!	!	!	!	!	!	!	!	!	!	!	!	!	!	!	!
.	.	8g/|	.	8ee-\L|	.	.	.	.	.	.	.	.	.	.	.	.	.	.	.	.
.	.	8g/J|	.	8ff\J|	.	.	.	.	.	.	.	.	.	.	.	.	.	.	.	.
.	.	8e-'/L	.	16gg\LL	.	.	.	.	.	.	.	.	.	.	.	.	.	.	.	.
.	.	.	.	(16ff\	.	.	.	.	.	.	.	.	.	.	.	.	.	.	.	.
.	.	8e-'/	.	16ee-\	.	.	.	.	.	.	.	.	.	.	.	.	.	.	.	.
.	.	.	.	16dd\JJ)	.	.	.	.	.	.	.	.	.	.	.	.	.	.	.	.
.	.	8g'/	.	16ee-\LL	.	.	.	.	.	.	.	.	.	.	.	.	.	.	.	.
.	.	.	.	16dd\	.	.	.	.	.	.	.	.	.	.	.	.	.	.	.	.
!	!	!	!	!LO:TX:a:t=Clarinetti	!	!	!	!	!	!	!	!	!	!	!	!	!	!	!	!
.	.	8g'/J	.	16cc\	.	.	.	.	.	.	.	.	.	.	.	.	.	.	.	.
.	.	.	.	16b-\JJ	.	.	.	.	.	.	.	.	.	.	.	.	.	.	.	.
!	!	!	!	!	!	!	!	!	!	!	!	!	!	!	!LO:LB:g=original	!	!	!	!	!
=36	=36	=36	=36	=36	=36	=36	=36	=36	=36	=36	=36	=36	=36	=36	=36	=36	=36	=36	=36	=36
*	*	*^	*	*^	*	*	*	*	*	*	*	*	*	*	*	*	*	*	*	*
*	*	*cue	*	*	*cue	*	*	*	*	*	*	*	*	*	*	*	*	*	*	*	*	*
!	!	!	!LO:TX:b:t=1.	!	!	!LO:TX:b:t=1	!	!	!	!	!	!	!	!	!	!	!	!	!	!	!	!
0r	.	4a-/	1re	.	4ff/	1rg	.	1ryy	1ryy	.	.	1r	.	4B-/	4f\	.	4BB-/	.	4a-\	.	4ff\	1ryy
.	.	16a-/LL	.	.	16ff/LL	.	.	.	.	.	.	.	.	8B-/L	8g\L	.	4B-\	.	8g\L	.	16ff\LL	.
.	.	16g/	.	.	16een/	.	.	.	.	.	.	.	.	.	.	.	.	.	.	.	(16eeX\	.
.	.	16b-/	.	.	16gg/	.	.	.	.	.	.	.	.	8B-/J	8g\J	.	.	.	16b-\L	.	16gg\	.
.	.	16g/JJ	.	.	16ee/JJ	.	.	.	.	.	.	.	.	.	.	.	.	.	16g\JJ	.	16ee\JJ)	.
.	.	4a-/	.	.	4ff/	.	.	.	.	.	.	.	.	4B-/	4f\	.	4BB-/	.	4a-\	.	4ff\	.
.	.	4r	.	.	4rgg	.	.	.	.	.	.	.	.	4r	4r	.	4r	.	4r	.	4r	.
*	*	*Xcue	*	*	*Xcue	*	*	*	*	*	*	*	*	*	*	*	*	*	*	*	*	*
!	!	!LO:LB:g=original	!LO:LB:g=original	!	!	!	!	!	!	!	!	!	!	!	!	!	!	!	!	!	!	!
*	*	*v	*v	*	*	*	*	*	*	*	*	*	*	*	*	*	*	*	*	*	*	*
*	*	*	*	*v	*v	*	*	*	*	*	*	*	*	*	*	*	*	*	*	*	*
=37	=37	=37	=37	=37	=37	=37	=37	=37	=37	=37	=37	=37	=37	=37	=37	=37	=37	=37	=37	=37
!	!	!	!	!LO:TX:a:t=dolce	!	!	!	!	!	!	!	!	!	!	!	!	!	!	!	!
.	.	8f'/L	.	4aa-\	.	1ryy	1ryy	00r	.	1r	.	1r	1r	.	1r	.	1r	.	1r	1ryy
.	.	8f'/	.	.	.	.	.	.	.	.	.	.	.	.	.	.	.	.	.	.
.	.	8a-'/	.	8ff\L|	.	.	.	.	.	.	.	.	.	.	.	.	.	.	.	.
.	.	8a-'/J	.	8gg\J|	.	.	.	.	.	.	.	.	.	.	.	.	.	.	.	.
.	.	8f'/L	.	(16aa-\LL	.	.	.	.	.	.	.	.	.	.	.	.	.	.	.	.
.	.	.	.	16gg\	.	.	.	.	.	.	.	.	.	.	.	.	.	.	.	.
.	.	8f'/	.	16ff\	.	.	.	.	.	.	.	.	.	.	.	.	.	.	.	.
.	.	.	.	16ee-\JJ)	.	.	.	.	.	.	.	.	.	.	.	.	.	.	.	.
.	.	8a-'/	.	(16dd\LL	.	.	.	.	.	.	.	.	.	.	.	.	.	.	.	.
.	.	.	.	16cc\	.	.	.	.	.	.	.	.	.	.	.	.	.	.	.	.
.	.	8a-'/J	.	16b-\	.	.	.	.	.	.	.	.	.	.	.	.	.	.	.	.
.	.	.	.	16a-\JJ)	.	.	.	.	.	.	.	.	.	.	.	.	.	.	.	.
!	!	!	!	!	!	!	!	!	!	!	!	!LO:LB:g=original	!	!	!	!	!	!	!	!
=38	=38	=38	=38	=38	=38	=38	=38	=38	=38	=38	=38	=38	=38	=38	=38	=38	=38	=38	=38	=38
4E-\	.	4.g/	.	4.b-\	.	1ryy	1ryy	.	.	1r	.	4G/	4e-\	.	4BB-/	.	4.g/	.	4.b-\	1ryy
4E-\	.	.	.	.	.	.	.	.	.	.	.	4r	4r	.	4EE-/	.	.	.	.	.
!	!	!	!	!	!LO:DY:a:t=forte	!	!	!	!	!	!	!	!	!	!	!	!	!	!	!
.	.	8f/	.	8ee-\	f	.	.	.	.	.	.	.	.	.	.	.	8g/	.	8ee-\	.
4r	.	8g/L	.	(8b-\L	.	.	.	.	.	.	.	8B-/L	8g\L	.	4r	.	8g/L	.	8b-\L	.
.	.	8e-/	.	8g\)	.	.	.	.	.	.	.	8G/	8e-\	.	.	.	8e-/	.	8g\	.
4E-\	.	8g/	.	(8b-\	.	.	.	.	.	.	.	8B-/	8g\	.	4E-\	.	8g/	.	8b-\	.
.	.	8e-/J	.	8g\J)	.	.	.	.	.	.	.	8G/J	8e-\J	.	.	.	8e-/J	.	8g\J	.
!	!	!	!	!LO:LB:g=original	!	!	!	!	!	!	!	!	!	!	!	!	!LO:LB:g=original	!	!LO:LB:g=original	!
=39	=39	=39	=39	=39	=39	=39	=39	=39	=39	=39	=39	=39	=39	=39	=39	=39	=39	=39	=39	=39
8D'/L	.	8d/L	.	8f/L	.	1ryy	1ryy	.	.	1r	.	4.B-/	4.f\	.	8D/L	.	8d/L	.	8f/L	1ryy
8D'/	.	8f/J	.	8a-/J	.	.	.	.	.	.	.	.	.	.	8D/	.	8f/J	.	8a-/J	.
!	!	!LO:TUP:b:problem=klamra łukowa, numer	!	!LO:TUP:a:problem=klamra łukowa, numer	!	!	!	!	!	!	!	!	!	!	!	!	!LO:TUP:b:klamra łukowa, numer	!	!LO:TUP:a:problem=klamra łukowa, numer	!
8BB-'/	.	12a-/L	.	12cc\L	.	.	.	.	.	.	.	.	.	.	8BB-/	.	12a-/L	.	12cc\L	.
.	.	12g/	.	12b-\	.	.	.	.	.	.	.	.	.	.	.	.	12g/	.	12b-\	.
8BB-'/J	.	.	.	.	.	.	.	.	.	.	.	8B-/	8f\	.	8BB-/J	.	.	.	.	.
.	.	12f/J	.	12a-\J	.	.	.	.	.	.	.	.	.	.	.	.	12f/J	.	12a-\J	.
8E-'\L	.	4e-/	.	4g/	.	.	.	.	.	.	.	4e-\	4g\	.	8E-\L	.	4e-/	.	4g/	.
8E-'\	.	.	.	.	.	.	.	.	.	.	.	.	.	.	8E-\	.	.	.	.	.
8G'\	.	8g/L	.	8b-/L	.	.	.	.	.	.	.	4r	4r	.	8G\	.	4g/	.	4ee-\	.
8G'\J	.	8B-/J	.	8g/J	.	.	.	.	.	.	.	.	.	.	8G\J	.	.	.	.	.
!LO:LB:g=original	!	!	!	!	!	!	!	!	!	!	!	!	!LO:LB:g=original	!	!	!	!	!	!	!
=40	=40	=40	=40	=40	=40	=40	=40	=40	=40	=40	=40	=40	=40	=40	=40	=40	=40	=40	=40	=40
8A-'\L	.	4A-/	.	(8g/L	.	1ryy	1ryy	.	.	1r	.	2r	2r	.	8A-\L	.	4a-\	.	4ff\	1ryy
8A-'\	.	.	.	8f/)	.	.	.	.	.	.	.	.	.	.	8A-\	.	.	.	.	.
8F'\	.	8c/L	.	8a-/|	.	.	.	.	.	.	.	.	.	.	8F\	.	8cc\L	.	(8aa-\L	.
8F'\J	.	8A-/J	.	8f/J|	.	.	.	.	.	.	.	.	.	.	8F\J	.	8a-\J	.	8ff\J)	.
!LO:TX:a:t=P:problem=mixed beam	!	!	!	!LO:TX:a:t=Clarinetti	!	!	!	!	!	!	!	!	!	!	!LO:TX:a:t=P:problem=mixed beam	!	!	!	!	!
8B-\L	.	8A-/L	.	(8f/L	.	.	.	.	.	.	.	4e-\	4g\	.	8B-\L	.	(8a-\L	.	4ee-\	.
8B-\	.	8G/	.	8e-/)	.	.	.	.	.	.	.	.	.	.	8B-\	.	8g\)	.	.	.
8BB-/	.	8G/	.	(8e-/	.	.	.	.	.	.	.	4B-/	4f\	.	8BB-/	.	(8g\	.	4dd\	.
8BB-/J	.	8A-/J	.	8d/J)	.	.	.	.	.	.	.	.	.	.	8BB-/J	.	8f\J)	.	.	.
!	!	!LO:LB:g=original	!	!	!	!	!	!	!	!	!	!	!	!	!LO:LB:g=original	!	!	!	!	!
=41	=41	=41	=41	=41	=41	=41	=41	=41	=41	=41	=41	=41	=41	=41	=41	=41	=41	=41	=41	=41
*	*	*^	*	*^	*	*	*	*	*	*	*	*	*	*	*	*	*	*	*	*
*	*	*cue	*	*	*cue	*	*	*	*	*	*	*	*	*	*	*	*	*	*	*	*	*
!	!	!	!	!	!	!LO:TX:b:t=1	!	!	!	!	!	!	!	!	!	!	!	!	!	!	!	!
!	!	!	!LO:TX:b:t=1	!	!	!	!	!	!	!	!	!	!	!	!	!	!	!	!	!	!	!
4E-\	.	8gg/L	1re	.	8bb-/L	1r	.	1ryy	1ryy	00r	.	1r	.	8G'/L	8e-'\L	.	4E-\	.	8g/L|	.	8b-\L|	1ryy
.	.	8gg/	.	.	8bb-/	.	.	.	.	.	.	.	.	8G'/	8e-'\	.	.	.	8g'/	.	8b-'\	.
4r	.	8ee-/	.	.	8gg/	.	.	.	.	.	.	.	.	8B-'/	8g'\	.	4r	.	8e-'/	.	8g'\	.
.	.	8ee-/J	.	.	8gg/J	.	.	.	.	.	.	.	.	8B-'/J	8g'\J	.	.	.	8e-'/J	.	8g'\J	.
2r	.	8gg/L	.	.	8bb-/L	.	.	.	.	.	.	.	.	8G'/L	8e-\L|	.	4E-\	.	8g'/L	.	8b-'/L	.
.	.	8gg/	.	.	8bb-/	.	.	.	.	.	.	.	.	8G'/	8e-\|	.	.	.	8g'/	.	8b-'/	.
.	.	8ee-/	.	.	8gg/	.	.	.	.	.	.	.	.	8B-'/	8g'\	.	4G\	.	8e-'/	.	8g'/	.
.	.	8ee-/J	.	.	8gg/J	.	.	.	.	.	.	.	.	8B-'/J	8g'\J	.	.	.	8e-'/J	.	8g'/J	.
=42	=42	=42	=42	=42	=42	=42	=42	=42	=42	=42	=42	=42	=42	=42	=42	=42	=42	=42	=42	=42	=42	=42
!	!	!	!LO:TX:b:t=2	!	!	!LO:TX:b:t=2	!	!	!	!	!	!	!	!	!	!	!	!	!	!	!	!
1r	.	8ff/L	1re	.	8aa-/L	1r	.	1ryy	1ryy	.	.	1r	.	8B-/L	8f\L	.	4B-\	.	(8f/L	.	(8a-\L	1ryy
.	.	8b-/J	.	.	8ff/J	.	.	.	.	.	.	.	.	8B-/J	8f\J	.	.	.	8a-/J)	.	8ff\J)	.
.	.	4b-/	.	.	8ff/L	.	.	.	.	.	.	.	.	4B-/	4f\	.	4BB-/	.	4a-/|	.	8dd\L|	.
.	.	.	.	.	16ee-/L	.	.	.	.	.	.	.	.	.	.	.	.	.	.	.	(16cc\L	.
.	.	.	.	.	16ff/JJ	.	.	.	.	.	.	.	.	.	.	.	.	.	.	.	16dd\JJ)	.
!	!	!	!	!	!	!	!	!	!	!	!	!	!	!	!	!	!	!	!LO:LB:g=original	!	!	!
!	!	!	!	!	!	!	!	!	!	!	!	!	!	!LO:TX:a:t=P:problem=mixed beam	!	!	!	!	!	!	!	!
.	.	8ee-/L	.	.	8gg/L	.	.	.	.	.	.	.	.	8e-\L	8g\L	.	8E-/L	.	8g/L|	.	8ee-\L|	.
.	.	8g/J	.	.	8ee-/J	.	.	.	.	.	.	.	.	8G/J	8e-\J	.	8BB-/J	.	8g/J|	.	8ee-\J|	.
!	!	!LO:TX:a:t=Verte Cito	!	!	!	!	!	!	!	!	!	!	!	!	!	!	!LO:TX:a:t=Solo:problem=zapisane czerwonym atramentem	!	!	!	!	!
.	.	4g/	.	.	4ee-/	.	.	.	.	.	.	.	.	4G/	4e-\	.	4EE-/	.	4g/|	.	4ee-\	.
*	*	*Xcue	*	*	*Xcue	*	*	*	*	*	*	*	*	*	*	*	*	*	*	*	*	*
!	!	!	!	!	!	!	!	!	!	!	!	!	!	!LO:LB:g=original	!	!	!	!	!	!	!LO:LB:g=original	!
!	!	!LO:PB:g=original	!LO:PB:g=original	!	!LO:PB:g=original	!LO:PB:g=original	!	!	!	!	!	!	!	!	!	!	!	!	!	!	!	!
*	*	*v	*v	*	*	*	*	*	*	*	*	*	*	*	*	*	*	*	*	*	*	*
*	*	*	*	*v	*v	*	*	*	*	*	*	*	*	*	*	*	*	*	*	*	*
=43	=43	=43	=43	=43	=43	=43	=43	=43	=43	=43	=43	=43	=43	=43	=43	=43	=43	=43	=43	=43
!	!	!	!	!LO:TX:a:t=Violino	!	!	!	!	!	!	!	!	!	!	!	!	!LO:TX:a:t=5:problem=zapisane czerwonym atramentem	!	!	!
4r	.	8g/L|	.	8b-/L	.	1ryy	1ryy	.	.	1r	.	00r	1r	.	8B-'\L	.	00r	.	00r	1ryy
!	!	!	!	!	!LO:DY:b:t=p&colon;	!	!	!	!	!	!	!	!	!	!	!	!	!	!	!
.	.	8g'/	.	8b-/	p	.	.	.	.	.	.	.	.	.	8B-\	.	.	.	.	.
4E-\	.	8e-'/	.	8g/	.	.	.	.	.	.	.	.	.	.	8G'\	.	.	.	.	.
.	.	8e-'/J	.	8g/J	.	.	.	.	.	.	.	.	.	.	8G'\J	.	.	.	.	.
!	!LO:DY:b:t=p&colon;	!	!	!	!	!	!	!	!	!	!	!	!	!	!	!	!	!	!	!
4B-\	p	16f/LL	.	(16a-/LL	.	.	.	.	.	.	.	.	.	.	(16A-\LL	.	.	.	.	.
.	.	(16e-/	.	16g/	.	.	.	.	.	.	.	.	.	.	16G\	.	.	.	.	.
.	.	16f/	.	16a-/)	.	.	.	.	.	.	.	.	.	.	16A-\	.	.	.	.	.
.	.	16g/JJ)	.	16b-/JJ	.	.	.	.	.	.	.	.	.	.	16B-\JJ)	.	.	.	.	.
4BB-/	.	8a-/	.	8cc\	.	.	.	.	.	.	.	.	.	.	8c\	.	.	.	.	.
.	.	16r	.	16r	.	.	.	.	.	.	.	.	.	.	16r	.	.	.	.	.
.	.	16g/|	.	16ee-\	.	.	.	.	.	.	.	.	.	.	16B-\	.	.	.	.	.
=44	=44	=44	=44	=44	=44	=44	=44	=44	=44	=44	=44	=44	=44	=44	=44	=44	=44	=44	=44	=44
4r	.	8f'/L	.	8a-'/L	.	1ryy	1ryy	.	.	1r	.	.	2r	.	8A-'\L	.	.	.	.	1ryy
.	.	8f'/	.	8a-'/	.	.	.	.	.	.	.	.	.	.	8A-'\	.	.	.	.	.
4BB-/	.	8d'/	.	8f'/	.	.	.	.	.	.	.	.	.	.	8F'\	.	.	.	.	.
.	.	8d'/J	.	8f'/J	.	.	.	.	.	.	.	.	.	.	8F'\J	.	.	.	.	.
4E-/	.	(16e-/LL	.	16g/LL	.	.	.	.	.	.	.	.	4r	.	16G\LL	.	.	.	.	.
.	.	16d/	.	(16f/	.	.	.	.	.	.	.	.	.	.	16F\	.	.	.	.	.
.	.	16e-/)	.	16g/	.	.	.	.	.	.	.	.	.	.	16G\	.	.	.	.	.
.	.	16f/JJ	.	16a-/JJ)	.	.	.	.	.	.	.	.	.	.	16A-\JJ	.	.	.	.	.
!	!	!	!	!LO:TX:a:t=P:problem=kreska taktowa przed 8b-\	!	!	!	!	!	!	!	!	!	!	!	!	!	!	!	!
4EE-/	.	8g/	.	8b-\	.	.	.	.	.	.	.	.	8r	.	8B-\	.	.	.	.	.
.	.	16r	.	16r	.	.	.	.	.	.	.	.	8e-\|	.	8r	.	.	.	.	.
.	.	16b-\	.	16ee-\	.	.	.	.	.	.	.	.	.	.	.	.	.	.	.	.
!	!	!	!	!	!	!	!	!	!	!	!	!	!LO:LB:g=original	!	!LO:LB:g=original	!	!	!	!	!
=45	=45	=45	=45	=45	=45	=45	=45	=45	=45	=45	=45	=45	=45	=45	=45	=45	=45	=45	=45	=45
!	!	!	!	!LO:TX:b:t=Dolce.	!	!	!	!	!	!	!	!	!	!	!	!	!	!	!	!
1r	.	8a-/	.	(8dd\L	.	1ryy	1ryy	00r	.	1r	.	.	8B-/	.	1r	.	.	.	.	1ryy
.	.	8r	.	8b-\)	.	.	.	.	.	.	.	.	8r	.	.	.	.	.	.	.
.	.	8r	.	8b-'\	.	.	.	.	.	.	.	.	8r	.	.	.	.	.	.	.
.	.	8b-\	.	8ee-\J|	.	.	.	.	.	.	.	.	8e-/	.	.	.	.	.	.	.
.	.	8a-\	.	(8dd\L	.	.	.	.	.	.	.	.	8B-/|	.	.	.	.	.	.	.
.	.	8r	.	8b-\)	.	.	.	.	.	.	.	.	8r	.	.	.	.	.	.	.
.	.	8r	.	8b-'\	.	.	.	.	.	.	.	.	8r	.	.	.	.	.	.	.
.	.	8b-\	.	8ee-'\J	.	.	.	.	.	.	.	.	8e-/|	.	.	.	.	.	.	.
!	!	!LO:LB:g=original	!	!LO:LB:g=original	!	!	!	!	!	!	!	!	!	!	!	!	!	!	!	!
=46	=46	=46	=46	=46	=46	=46	=46	=46	=46	=46	=46	=46	=46	=46	=46	=46	=46	=46	=46	=46
2r	.	8B-/ 8a-	.	8dd\	.	1ryy	1ryy	.	.	1r	.	.	8B-/	.	2r	.	.	.	.	1ryy
.	.	8r	.	8r	.	.	.	.	.	.	.	.	8r	.	.	.	.	.	.	.
.	.	8B-/ 8a-	.	8ff\	.	.	.	.	.	.	.	.	8B-/	.	.	.	.	.	.	.
.	.	8r	.	8r	.	.	.	.	.	.	.	.	8r	.	.	.	.	.	.	.
4r	.	8B-/ 8a-	.	8aa-\	.	.	.	.	.	.	.	.	8B-/	.	4r	.	.	.	.	.
.	.	8r	.	8r	.	.	.	.	.	.	.	.	8r	.	.	.	.	.	.	.
8r	.	8r	.	8r	.	.	.	.	.	.	.	.	4r	.	8r	.	.	.	.	.
8BB-/	.	8a-/	.	8dd\	.	.	.	.	.	.	.	.	.	.	8BB-/	.	.	.	.	.
!LO:LB:g=original	!	!	!	!	!	!	!	!	!	!	!	!	!	!	!	!	!	!	!	!
=47	=47	=47	=47	=47	=47	=47	=47	=47	=47	=47	=47	=47	=47	=47	=47	=47	=47	=47	=47	=47
.	.	.	.	8qff/	.	.	.	.	.	.	.	.	.	.	.	.	.	.	.	.
4E-\	.	4g/	.	4ee-\	.	1ryy	1ryy	.	.	1r	.	1r	1r	.	4E-\	.	1r	.	1r	1ryy
4A-\	.	16b-/LL	.	(16dd\LL	.	.	.	.	.	.	.	.	.	.	8A-\L	.	.	.	.	.
.	.	(16a-/	.	16cc\	.	.	.	.	.	.	.	.	.	.	.	.	.	.	.	.
.	.	16g/	.	16b-\	.	.	.	.	.	.	.	.	.	.	8A-\J	.	.	.	.	.
.	.	16f/JJ)	.	16a-\JJ)	.	.	.	.	.	.	.	.	.	.	.	.	.	.	.	.
.	.	.	.	8qqa-/	.	.	.	.	.	.	.	.	.	.	.	.	.	.	.	.
4B-\	.	4e-/	.	4g/	.	.	.	.	.	.	.	.	.	.	4B-\	.	.	.	.	.
4BB-/	.	4d/	.	4f/	.	.	.	.	.	.	.	.	.	.	4BB-/	.	.	.	.	.
=48	=48	=48	=48	=48	=48	=48	=48	=48	=48	=48	=48	=48	=48	=48	=48	=48	=48	=48	=48	=48
*tremolo	*	*	*	*	*	*	*	*	*	*	*	*	*	*	*	*	*	*	*	*
!	!LO:DY:b:t=for&colon;	!	!	!	!LO:DY:b:t=forte	!	!	!	!	!	!	!	!	!	!	!	!	!	!	!
8E-\L	f	8g'/L	.	8b-\L	f	1ryy	1ryy	.	.	1r	.	8G/L	8B-/L|	.	8E-\L	.	8g/L	.	8b-\L|	1ryy
8E-\	.	8g'/	.	8b-\	.	.	.	.	.	.	.	8G/	8B-/|	.	8E-\	.	8g/	.	8b-\|	.
8E-\	.	8e-'/	.	8g\	.	.	.	.	.	.	.	8E-/	8G/|	.	8E-\	.	8e-/	.	8g\|	.
8E-\J	.	8e-'/J	.	8g\J|	.	.	.	.	.	.	.	8E-/J	8G/J|	.	8E-\J	.	8e-/J	.	8g\J|	.
*	*	*	*	*	*	*	*	*	*	*	*	*	*	*	*tremolo	*	*	*	*	*
*	*	*	*	*	*	*	*	*	*	*	*	*	*	*	*2\right	*	*	*	*	*
8E-\L	.	8g/L|	.	8b-\L|	.	.	.	.	.	.	.	8G/L	8B-/L|	.	8E-\L	.	8g/L	.	8b-\L|	.
8E-\	.	8g/|	.	8b-\|	.	.	.	.	.	.	.	8G/	8B-'/	.	8E-\	.	8g/	.	8b-\|	.
8E-\	.	8e-'/	.	8g\	.	.	.	.	.	.	.	8E-/	8G/|	.	8E-\	.	8e-/	.	8g\|	.
8E-\J	.	8e-'/J	.	8g\J|	.	.	.	.	.	.	.	8E-/J	8G'/J	.	8E-\J	.	8e-/J	.	8g\J|	.
*Xtremolo	*	*	*	*	*	*	*	*	*	*	*	*	*	*	*Xtremolo	*	*	*	*	*
=49	=49	=49	=49	=49	=49	=49	=49	=49	=49	=49	=49	=49	=49	=49	=49	=49	=49	=49	=49	=49
8E-\L	.	4g/	.	8b-\L	.	1ryy	1ryy	0r	.	1r	.	4G/	4B-/	.	8E-\L	.	4g/	.	(8b-\L	1ryy
8E-\	.	.	.	8ee-\J	.	.	.	.	.	.	.	.	.	.	8E-\	.	.	.	8ee-\J)	.
.	.	8qqb-/	.	8qqdd/	.	.	.	.	.	.	.	.	.	.	.	.	.	.	8qdd/	.
8A-\	.	8a-/L	.	8cc\L	.	.	.	.	.	.	.	4r	4r	.	8A-\	.	(8a-/L	.	8cc\L	.
8A-\J	.	16g/L	.	16b-\L	.	.	.	.	.	.	.	.	.	.	8A-\J	.	16g/L	.	(16b-\L	.
.	.	16f/JJ	.	16a-\JJ	.	.	.	.	.	.	.	.	.	.	.	.	16f/JJ)	.	16a-\JJ)	.
!LO:TX:a:t=P:problem=mixed beam	!	!	!	!	!	!	!	!	!	!	!	!	!	!	!LO:TX:a:t=P:problem=mixed beam	!	!	!	!	!
8B-\L	.	4e-/	.	4g/	.	.	.	.	.	.	.	4G/	4e-\	.	8B-\L	.	4e-/	.	4g/	.
8B-\	.	.	.	.	.	.	.	.	.	.	.	.	.	.	8B-\	.	.	.	.	.
8BB-/	.	4d/	.	4f/	.	.	.	.	.	.	.	4B-/	4f\	.	8BB-/	.	4B-/	.	4f/	.
8BB-/J	.	.	.	.	.	.	.	.	.	.	.	.	.	.	8BB-/J	.	.	.	.	.
!	!	!LO:LB:g=original	!	!LO:LB:g=original	!	!	!	!	!	!	!	!	!LO:LB:g=original	!	!LO:LB:g=original	!	!	!	!	!
=50	=50	=50	=50	=50	=50	=50	=50	=50	=50	=50	=50	=50	=50	=50	=50	=50	=50	=50	=50	=50
4E-\	.	4G/ 4e-	.	4G/ 4e-	.	1ryy	1ryy	.	.	1r	.	4G/	8e-'\L	.	4E-\	.	4G/	.	4e-/	1ryy
.	.	.	.	.	.	.	.	.	.	.	.	.	8e-'\	.	.	.	.	.	.	.
2r	.	8r	.	8r	.	.	.	.	.	.	.	4r	8e-'\	.	4r	.	4r	.	4r	.
!	!	!	!	!	!LO:DY:b:t=pp&colon;	!	!	!	!	!	!	!	!	!	!	!	!	!	!	!
.	.	8g/	.	8b-\	pp	.	.	.	.	.	.	.	8e-'\J	.	.	.	.	.	.	.
.	.	8g/L	.	8b-/L	.	.	.	.	.	.	.	4r	8e-'\L	.	4r	.	4r	.	4r	.
.	.	8e-/	.	(8f/	.	.	.	.	.	.	.	.	8e-'\	.	.	.	.	.	.	.
8r	.	8g/	.	8b-/)	.	.	.	.	.	.	.	8r	8e-'\	.	8r	.	8r	.	8rcc	.
!	!LO:DY:b:t=pp&colon;	!	!	!	!	!	!	!	!	!	!	!	!	!	!	!	!	!	!	!
8BB-/	pp	8f/J	.	8B-/J 8a-	.	.	.	.	.	.	.	8B-/	8f'\J	.	8d\	.	8a-\	.	8ff\|	.
=51	=51	=51	=51	=51	=51	=51	=51	=51	=51	=51	=51	=51	=51	=51	=51	=51	=51	=51	=51	=51
*	*	*	*	*	*	*	*	*	*	*	*	*	*	*	*	*	*2\right	*	*	*
!	!	!	!	!	!	!	!	!LO:TX:a:t=P:problem=kreska taktowa zapisana czerwonym atramentem	!	!	!	!	!	!	!	!	!	!	!	!
4E-\	.	2f/	.	(2B-/ 2a-	.	1ryy	1ryy	1r	.	1r	.	2A-/	2f\	.	2d\	.	(2a-\	.	(2ff\	1ryy
4BB-/	.	.	.	.	.	.	.	.	.	.	.	.	.	.	.	.	.	.	.	.
4EE-/	.	4e-/	.	4g/)|	.	.	.	.	.	.	.	4G/	4e-\	.	4e-\	.	4g\)	.	4ee-\)	.
!LO:TX:a:t=P:problem=ozdobna kreska taktowa zapisana czerwonym atramentem	!	!	!	!	!	!	!	!	!	!	!	!LO:TX:a:t=P:problem=ozdobna kreska taktowa, zapisana czerwonym atramentem	!LO:TX:a:t=P:problem=ozdobna kreska taktowa, zapisana czerwonym atramentem	!	!LO:TX:a:t=P:problem=ozdobna kreska taktowa, zapisana czerwonym atramentem	!	!LO:TX:a:t=P:problem=podwójna (właściwie jest tu więcej kresek), czerwona kreska taktowa na początku kolejnej pięciolinii	!	!LO:TX:a:t=P:problem=kreska taktowa napisana czerwonym atramentem	!
!	!	!LO:TX:a:t=P:problem=ozdobna kreska taktowa zapisana czerwonym atramentem	!	!LO:TX:a:t=P:problem=ozdobna kreska taktowa zapisana czerwonym atramentem	!	!	!	!	!	!	!	!	!	!	!	!	!LO:TX:b:t=Benedictus:problem=napisane czerwonym atramentem	!	!LO:TX:b:t=Benedictus:problem=zapisane czerwonym atramentem	!
4r	.	4r	.	4r	.	.	.	.	.	.	.	4r	4r	.	4r	.	4r	.	4r	.
!	!	!	!	!	!	!	!	!	!	!	!	!	!	!	!	!	!LO:LB:g=original	!	!	!
=52||	=52||	=52||	=52||	=52||	=52||	=52||	=52||	=52||	=52||	=52||	=52||	=52||	=52||	=52||	=52||	=52||	=52||	=52||	=52||	=52||
!	!	!	!	!	!	!	!	!	!	!	!	!LO:TX:b:t=Vox Benedictus:problem=zapisane czerwonym atramentem	!	!	!	!	!	!	!	!
!	!	!LO:TX:b:t=Vox\nBenedictus.:problem=zapisane czerwonym atramentem	!LO:DY:b:t=p&colon;	!LO:TX:b:t=Vox\nBenedictus:problem=zapisane czerwonym atramentem	!LO:DY:b:t=piano	!	!	!LO:TX:a:t=P:problem=all\middle or right	!	!LO:TX:a:t=P:problem=all\middle or right	!	!LO:TX:a:t=5	!LO:TX:a:t=p&colon; Vox.\nBenedictus:problem=zapisane czerwonym atramentem	!	!	!	!	!	!LO:TX:a:t=5	!
4r	.	2g/	p	2ee-\	p	1ryy	1ryy	4g\	Be-	4ee-\	Be-	00r	00r	.	00r	.	00r	.	00r	1ryy
!	!LO:DY:b:t=pia&colon;	!	!	!	!	!	!	!	!	!	!	!	!	!	!	!	!	!	!	!
4E-\	p	.	.	.	.	.	.	4g\	-ne-	4ee-\	-ne-	.	.	.	.	.	.	.	.	.
!LO:TX:b:t=Vox:problem=zapisane czerwonym atramentem	!	!	!	!	!	!	!	!	!	!	!	!	!	!	!	!	!	!	!	!
4G\	.	(8g/L	.	(8ee-\L	.	.	.	(8g\L	-di-	(8ee-\L	-di-	.	.	.	.	.	.	.	.	.
.	.	8f/)	.	8dd\	.	.	.	8f\J)	.	8dd\J)	.	.	.	.	.	.	.	.	.	.
4B-\	.	(8a-/	.	8ff\)	.	.	.	(8a-\L	.	(8ff\L	.	.	.	.	.	.	.	.	.	.
.	.	8f/J)	.	8dd\J	.	.	.	8f\J)	.	8dd\J)	.	.	.	.	.	.	.	.	.	.
!LO:LB:g=original	!	!	!	!	!	!	!	!	!	!	!	!	!	!	!	!	!	!	!	!
=53	=53	=53	=53	=53	=53	=53	=53	=53	=53	=53	=53	=53	=53	=53	=53	=53	=53	=53	=53	=53
4e-\	.	4.g/	.	4.ee-\	.	1ryy	1ryy	4.g\	.	4.ee-\	.	.	.	.	.	.	.	.	.	1ryy
4E-\	.	.	.	.	.	.	.	.	.	.	.	.	.	.	.	.	.	.	.	.
.	.	8a-/	.	8cc\	.	.	.	8a-\	.	8cc\	.	.	.	.	.	.	.	.	.	.
2r	.	8a-/L	.	(8cc\L	.	.	.	8a-\L	.	8cc\L	.	.	.	.	.	.	.	.	.	.
.	.	8g/	.	8b-\	.	.	.	(8g\	.	(8b-\	.	.	.	.	.	.	.	.	.	.
.	.	8f/	.	8a-\)	.	.	.	8f\)	.	8a-\	.	.	.	.	.	.	.	.	.	.
.	.	8e-/J	.	8g\J	.	.	.	8e-\J	.	8g\J)	.	.	.	.	.	.	.	.	.	.
!	!	!	!	!	!	!	!	!LO:LB:g=original	!	!LO:LB:g=original	!	!	!	!	!	!	!	!	!	!
=54	=54	=54	=54	=54	=54	=54	=54	=54	=54	=54	=54	=54	=54	=54	=54	=54	=54	=54	=54	=54
!	!	!	!	!	!	!	!	!LO:TX:a:t=P:problem=na początku pięciolinii rozpoczynających się całym taktem podwójne kreski	!	!	!	!	!	!	!	!	!	!	!	!
8r	.	4.e-/	.	4.f/	.	1ryy	1ryy	4.e-\	-ctus	4.g\	-ctus	.	.	.	.	.	.	.	.	1ryy
8E-\L	.	.	.	.	.	.	.	.	.	.	.	.	.	.	.	.	.	.	.	.
8G\	.	.	.	.	.	.	.	.	.	.	.	.	.	.	.	.	.	.	.	.
8E-\J	.	8g/	.	8b-/	.	.	.	8g\	qvi	8b-\	qvi	.	.	.	.	.	.	.	.	.
4B-\	.	(8g/L	.	(8b-/L	.	.	.	(8g\L	.	(8b-\L	.	.	.	.	.	.	.	.	.	.
.	.	8f/	.	8a-/	.	.	.	8f\J)	.	8a-\J)	.	.	.	.	.	.	.	.	.	.
4BB-/	.	8e-/	.	8g/)	.	.	.	(8e-\L	.	(8g\L	.	.	.	.	.	.	.	.	.	.
.	.	8d/J)	.	8f/J	.	.	.	8d\J)	.	8f\J)	.	.	.	.	.	.	.	.	.	.
!	!	!	!	!LO:LB:g=original	!	!	!	!	!	!	!	!	!	!	!	!	!	!	!	!
=55	=55	=55	=55	=55	=55	=55	=55	=55	=55	=55	=55	=55	=55	=55	=55	=55	=55	=55	=55	=55
8r	.	4.d/	.	4.f/	.	1ryy	1ryy	4.d\	ve-	4.f/	ve-	.	.	.	.	.	.	.	.	1ryy
8BB-/L	.	.	.	.	.	.	.	.	.	.	.	.	.	.	.	.	.	.	.	.
8D/	.	.	.	.	.	.	.	.	.	.	.	.	.	.	.	.	.	.	.	.
8BB-/J	.	8f/	.	8a-/	.	.	.	8f\	.	8a-\	.	.	.	.	.	.	.	.	.	.
!	!	!LO:LB:g=original	!	!	!	!	!	!	!	!	!	!	!	!	!	!	!	!	!	!
4E-\	.	(8f/L	.	(8a-/L	.	.	.	(8f\L	.	(8a-\L	.	.	.	.	.	.	.	.	.	.
.	.	8e-/	.	8g/)	.	.	.	8e-\J)	.	8g\J)	.	.	.	.	.	.	.	.	.	.
4A-\	.	8f/)	.	8a-/|	.	.	.	(8c\L	.	(8a-\L	.	.	.	.	.	.	.	.	.	.
.	.	8A-/J	.	8f/J|	.	.	.	8A-\J)	.	8f\J)	.	.	.	.	.	.	.	.	.	.
=56	=56	=56	=56	=56	=56	=56	=56	=56	=56	=56	=56	=56	=56	=56	=56	=56	=56	=56	=56	=56
!	!	!	!	!	!	!	!	!	!	!	!	!	!LO:TX:b:t=Verte Cito	!	!	!	!	!	!	!
4B-\	.	4G/	.	(8f/L	.	1ryy	1ryy	4G/	.	(8f/L	.	1r	1r	.	1r	.	1r	.	1r	1ryy
.	.	.	.	8e-/)	.	.	.	.	.	8e-/J)	.	.	.	.	.	.	.	.	.	.
4BB-/	.	4A-/	.	(8e-/	.	.	.	4A-/	.	8e-/L	.	.	.	.	.	.	.	.	.	.
.	.	.	.	8d/J)	.	.	.	.	.	8d/J	.	.	.	.	.	.	.	.	.	.
4E-\	.	4G/	.	4e-/	.	.	.	4G/	-nit	4e-/	-nit	.	.	.	.	.	.	.	.	.
4r	.	4r	.	8ff\L	.	.	.	4r	.	4r	.	.	.	.	.	.	.	.	.	.
.	.	.	.	8gg\J	.	.	.	.	.	.	.	.	.	.	.	.	.	.	.	.
!	!	!	!	!	!	!	!	!	!	!LO:LB:g=original	!	!	!	!	!	!	!	!	!LO:LB:g=original	!
!	!	!	!	!	!	!	!	!	!	!	!	!	!LO:PB:g=original	!	!	!	!	!	!	!
=57	=57	=57	=57	=57	=57	=57	=57	=57	=57	=57	=57	=57	=57	=57	=57	=57	=57	=57	=57	=57
*	*	*	*	*	*	*	*	*	*	*	*	*	*	*	*tremolo	*	*	*	*	*
!	!LO:DY:a:t=forte	!	!	!	!LO:DY:b:t=forte	!	!	!	!	!	!	!	!	!	!	!	!	!	!	!
8BB-/L	f	8d/L|	.	4aa-\	f	1ryy	1ryy	0r	.	0r	.	1B-	1f	.	8BB-/L	.	1f	.	1dd	1ryy
8D/	.	8f/|	.	.	.	.	.	.	.	.	.	.	.	.	8BB-/	.	.	.	.	.
8BB-/	.	8d/|	.	8ff\L	.	.	.	.	.	.	.	.	.	.	8BB-/	.	.	.	.	.
8D/J	.	8f/J|	.	8ee-\J	.	.	.	.	.	.	.	.	.	.	8BB-/J	.	.	.	.	.
*	*	*tremolo	*	*	*	*	*	*	*	*	*	*	*	*	*	*	*	*	*	*
8BB-/L	.	8d/L|	.	(16ee-\LL	.	.	.	.	.	.	.	.	.	.	8D/L	.	.	.	.	.
.	.	.	.	16dd\	.	.	.	.	.	.	.	.	.	.	.	.	.	.	.	.
8D/	.	8f/	.	16ff\)	.	.	.	.	.	.	.	.	.	.	8D/	.	.	.	.	.
.	.	.	.	16ee-\JJ	.	.	.	.	.	.	.	.	.	.	.	.	.	.	.	.
8BB-/	.	8d/|	.	(16dd\LL	.	.	.	.	.	.	.	.	.	.	8D/	.	.	.	.	.
.	.	.	.	16cc\	.	.	.	.	.	.	.	.	.	.	.	.	.	.	.	.
8D/J	.	8f/J	.	16b-\	.	.	.	.	.	.	.	.	.	.	8D/J	.	.	.	.	.
.	.	.	.	16a-\JJ)	.	.	.	.	.	.	.	.	.	.	.	.	.	.	.	.
*	*	*Xtremolo	*	*	*	*	*	*	*	*	*	*	*	*	*	*	*	*	*	*
!	!	!	!	!	!	!	!	!	!	!	!	!LO:LB:g=original	!	!	!	!	!	!	!	!
=58	=58	=58	=58	=58	=58	=58	=58	=58	=58	=58	=58	=58	=58	=58	=58	=58	=58	=58	=58	=58
8E-\L	.	8e-/L|	.	8g'\L	.	1ryy	1ryy	.	.	.	.	1e-	1g	.	8E-\L	.	1g	.	1ee-	1ryy
8G\	.	8g/|	.	8b-'\	.	.	.	.	.	.	.	.	.	.	8E-\	.	.	.	.	.
8E-\	.	8e-/|	.	8ee-'\	.	.	.	.	.	.	.	.	.	.	8E-\	.	.	.	.	.
8G\J	.	8g/J|	.	8gg\J|	.	.	.	.	.	.	.	.	.	.	8E-\J	.	.	.	.	.
*	*	*tremolo	*	*	*	*	*	*	*	*	*	*	*	*	*	*	*	*	*	*
8E-\L	.	8e-/L|	.	8bb-\L|	.	.	.	.	.	.	.	.	.	.	8G\L	.	.	.	.	.
8G\	.	8g/	.	8gg'\	.	.	.	.	.	.	.	.	.	.	8G\	.	.	.	.	.
8E-\	.	8e-/|	.	8ee-\|	.	.	.	.	.	.	.	.	.	.	8G\	.	.	.	.	.
8G\J	.	8g/J	.	8b-\J|	.	.	.	.	.	.	.	.	.	.	8G\J	.	.	.	.	.
*	*	*Xtremolo	*	*	*	*	*	*	*	*	*	*	*	*	*Xtremolo	*	*	*	*	*
!LO:LB:g=original	!	!	!	!LO:LB:g=original	!	!	!	!	!	!	!	!	!	!	!	!	!	!	!	!
=59	=59	=59	=59	=59	=59	=59	=59	=59	=59	=59	=59	=59	=59	=59	=59	=59	=59	=59	=59	=59
8A-\L	.	4a-/	.	(8bn\L	.	1ryy	1ryy	1r	.	1r	.	4E-/	4e-\	.	8A-\L	.	4r	.	4r	1ryy
8A-\	.	.	.	8cc\)	.	.	.	.	.	.	.	.	.	.	8A-\	.	.	.	.	.
8F\	.	(8cc/L	.	8aa-\|	.	.	.	.	.	.	.	4r	4r	.	8F\	.	8cc\L	.	4ff\	.
8F\J	.	8a-/J)	.	8ff\J|	.	.	.	.	.	.	.	.	.	.	8F\J	.	8a-\J	.	.	.
!LO:TX:a:t=P:problem=mixed beam	!	!	!	!	!	!	!	!	!	!	!	!	!	!	!LO:TX:a:t=P:problem=mixed beam	!	!	!	!	!
8B-\L	.	(8a-/L	.	(8ff\L	.	.	.	.	.	.	.	4e-\	4g\	.	8B-\L	.	8a-/	.	4ee-\	.
8B-\	.	8g/)	.	8ee-\)	.	.	.	.	.	.	.	.	.	.	8B-\	.	4g/	.	.	.
8BB-/	.	(8g/	.	(8ee-\	.	.	.	.	.	.	.	4B-/	4f\	.	8BB-/	.	.	.	4dd\	.
8BB-/J	.	8f/J)	.	8dd\J)	.	.	.	.	.	.	.	.	.	.	8BB-/J	.	8f/	.	.	.
!	!	!	!	!	!	!	!	!LO:LB:g=original	!	!	!	!	!	!	!LO:LB:g=original	!	!	!	!	!
=60	=60	=60	=60	=60	=60	=60	=60	=60	=60	=60	=60	=60	=60	=60	=60	=60	=60	=60	=60	=60
4E-/	.	2f/	.	(2dd\	.	1ryy	1ryy	2r	.	2r	.	2B-/	2f\	.	4E-/	.	2a-T\	.	(2ff\	1ryy
4BB-/	.	.	.	.	.	.	.	.	.	.	.	.	.	.	4BB-/	.	.	.	.	.
4EE-/	.	4g/	.	4ee-\)	.	.	.	4r	.	4r	.	4G/	4e-\	.	4EE-/	.	4g/	.	4ee-\)	.
4r	.	4r	.	4r	.	.	.	4g\	In	(8b-\L	In	4r	4r	.	4r	.	4r	.	4r	.
.	.	.	.	.	.	.	.	.	.	8ee-\J)	.	.	.	.	.	.	.	.	.	.
!	!	!LO:LB:g=original	!	!	!	!	!	!	!	!	!	!	!	!	!	!	!	!	!	!
=61	=61	=61	=61	=61	=61	=61	=61	=61	=61	=61	=61	=61	=61	=61	=61	=61	=61	=61	=61	=61
!	!	!	!	!	!	!	!	!	!	!	!	!LO:TX:a:t=27	!	!	!	!	!	!	!LO:TX:a:t=9	!
4r	.	4r	.	4r	.	1ryy	1ryy	(8g\L	no-	(8dd-X\L	no-	00r	00r	.	00r	.	00r	.	00r	1ryy
.	.	.	.	.	.	.	.	8a-\J)	.	8cc\J)	.	.	.	.	.	.	.	.	.	.
*	*	*	*	*	*	*	*	*2\right	*	*2\right	*	*	*	*	*	*	*	*	*	*
!	!	!	!	!	!LO:DY:b:t=piano	!	!	!	!	!	!	!	!	!	!	!	!	!	!	!
(4A-'\	.	4a-'/	.	(4cc'\	p	.	.	2a-\	-mi-	2cc\	-mi-	.	.	.	.	.	.	.	.	.
4A-'\	.	4a-'/	.	4cc'\	.	.	.	.	.	.	.	.	.	.	.	.	.	.	.	.
4A-'\)	.	4a-'/	.	4cc'\)	.	.	.	(8a-\L	.	(8cc\L	.	.	.	.	.	.	.	.	.	.
.	.	.	.	.	.	.	.	8en\J)	.	8g\J)	.	.	.	.	.	.	.	.	.	.
=62	=62	=62	=62	=62	=62	=62	=62	=62	=62	=62	=62	=62	=62	=62	=62	=62	=62	=62	=62	=62
!	!	!	!	!	!	!	!	!LO:SIC:s=(8en\L:v	!	!	!	!	!	!	!	!	!	!	!	!
4r	.	4r	.	4r	.	1ryy	1ryy	(8e-\L	.	(8g\L	.	.	.	.	.	.	.	.	.	1ryy
.	.	.	.	.	.	.	.	8f\J)	.	8a-\J)	.	.	.	.	.	.	.	.	.	.
(4B-'\	.	4f'/	.	(4a-'/	.	.	.	2f\	-ne	2a-\	-ne	.	.	.	.	.	.	.	.	.
4B-'\	.	4f'/	.	4a-'/	.	.	.	.	.	.	.	.	.	.	.	.	.	.	.	.
4B-'\)	.	4f'/	.	4a-'/)	.	.	.	(8f\L	do-	8a-\L	do-	.	.	.	.	.	.	.	.	.
.	.	.	.	.	.	.	.	8a-\J)	.	8cc\J	.	.	.	.	.	.	.	.	.	.
!	!	!	!	!	!	!	!	!	!	!LO:LB:g=original	!	!	!	!	!	!	!	!	!	!
=63	=63	=63	=63	=63	=63	=63	=63	=63	=63	=63	=63	=63	=63	=63	=63	=63	=63	=63	=63	=63
4r	.	4r	.	4r	.	1ryy	1ryy	8a-\L	.	8cc\L	.	.	.	.	.	.	.	.	.	1ryy
.	.	.	.	.	.	.	.	8g\J	.	8b-\J	.	.	.	.	.	.	.	.	.	.
(4BB-'/	.	4g/	.	4b-\	.	.	.	2g\	-mi-	2b-\	-mi-	.	.	.	.	.	.	.	.	.
4BB-'/	.	4g/	.	4b-\	.	.	.	.	.	.	.	.	.	.	.	.	.	.	.	.
4BB-'/)	.	8g/L	.	(8b-\L	.	.	.	4d\	.	(8b-\L	.	.	.	.	.	.	.	.	.	.
.	.	8d/J	.	8f\J)	.	.	.	.	.	8f\J)	.	.	.	.	.	.	.	.	.	.
!	!	!	!	!LO:LB:g=original	!	!	!	!LO:LB:g=original	!	!	!	!	!	!	!	!	!	!	!	!
=64	=64	=64	=64	=64	=64	=64	=64	=64	=64	=64	=64	=64	=64	=64	=64	=64	=64	=64	=64	=64
4E-\	.	4e-X/	.	8g/L	.	1ryy	1ryy	4e-X\	.	8g\L	.	.	.	.	.	.	.	.	.	1ryy
.	.	.	.	8b-/J	.	.	.	.	.	8b-\	.	.	.	.	.	.	.	.	.	.
4r	.	(8g/L	.	8ee-\L	.	.	.	8g\L	.	8ee-\	.	.	.	.	.	.	.	.	.	.
.	.	8f/J)	.	8dd\J	.	.	.	8f\J	.	8dd\J	.	.	.	.	.	.	.	.	.	.
(4A-\	.	(8a-/L	.	(8cc\L	.	.	.	8a-\L	.	8cc\L	.	.	.	.	.	.	.	.	.	.
.	.	8g/	.	8b-\	.	.	.	(8g\	.	8b-\	.	.	.	.	.	.	.	.	.	.
4An\)	.	8f/	.	8a-\	.	.	.	8f\)	.	8a-\	.	.	.	.	.	.	.	.	.	.
.	.	8e-/J)	.	8g\J)	.	.	.	8e-\J	.	8g\J	.	.	.	.	.	.	.	.	.	.
!LO:LB:g=original	!	!	!	!	!	!	!	!	!	!	!	!	!	!	!	!	!	!	!	!
=65	=65	=65	=65	=65	=65	=65	=65	=65	=65	=65	=65	=65	=65	=65	=65	=65	=65	=65	=65	=65
4B-\	.	4e-/	.	4gt/	.	1ryy	1ryy	(8.e-\L	.	8.g/L	.	00r	00r	.	00r	.	00r	.	00r	1ryy
.	.	.	.	.	.	.	.	32d\LL	.	32f/LL	.	.	.	.	.	.	.	.	.	.
.	.	.	.	.	.	.	.	32e-\JJJ)	.	32g/JJJ	.	.	.	.	.	.	.	.	.	.
.	.	.	.	16qqf/LL	.	.	.	.	.	.	.	.	.	.	.	.	.	.	.	.
.	.	.	.	16qqg/JJ	.	.	.	.	.	.	.	.	.	.	.	.	.	.	.	.
4F\	.	4d/	.	4f/	.	.	.	4d\	-ni	4f/	-ni	.	.	.	.	.	.	.	.	.
4BB-/	.	2r	.	4r	.	.	.	4r	.	2r	.	.	.	.	.	.	.	.	.	.
4r	.	.	.	((8f/L	.	.	.	(8f\L	in	.	.	.	.	.	.	.	.	.	.	.
.	.	.	.	8b-/J))	.	.	.	8b-\J)	.	.	.	.	.	.	.	.	.	.	.	.
=66	=66	=66	=66	=66	=66	=66	=66	=66	=66	=66	=66	=66	=66	=66	=66	=66	=66	=66	=66	=66
4r	.	4r	.	4r	.	1ryy	1ryy	(8b-\L	no-	1r	.	.	.	.	.	.	.	.	.	1ryy
.	.	.	.	.	.	.	.	8an\J)	.	.	.	.	.	.	.	.	.	.	.	.
4F\	.	4e-/	.	4an/	.	.	.	(8a\L	-mi-	.	.	.	.	.	.	.	.	.	.	.
.	.	.	.	.	.	.	.	8b-\J)	-ne	.	.	.	.	.	.	.	.	.	.	.
!	!	!	!	!	!	!	!	!LO:LB:g=original	!	!	!	!	!	!	!	!	!	!	!	!
!	!	!	!	!	!	!	!	!LO:TUP:a:problem=klamry łukowe z numerami w całym takcie	!	!	!	!	!	!	!	!	!	!	!	!
4F\	.	4e-/	.	4a/	.	.	.	12cc\L	do-	.	.	.	.	.	.	.	.	.	.	.
.	.	.	.	.	.	.	.	12b-\	.	.	.	.	.	.	.	.	.	.	.	.
.	.	.	.	.	.	.	.	12a\J	.	.	.	.	.	.	.	.	.	.	.	.
4F\	.	4e-/	.	4a/	.	.	.	12g\L	.	.	.	.	.	.	.	.	.	.	.	.
.	.	.	.	.	.	.	.	12f\	.	.	.	.	.	.	.	.	.	.	.	.
.	.	.	.	.	.	.	.	12e-\J	.	.	.	.	.	.	.	.	.	.	.	.
!	!	!LO:LB:g=original	!	!	!	!	!	!	!	!LO:LB:g=original	!	!	!	!	!	!	!	!	!	!
=67	=67	=67	=67	=67	=67	=67	=67	=67	=67	=67	=67	=67	=67	=67	=67	=67	=67	=67	=67	=67
2F\	.	2e-/	.	2a-/	.	1ryy	1ryy	2e-T\	-mi-	2r	.	.	.	.	.	.	.	.	.	1ryy
4B-\	.	4d/	.	4b-/	.	.	.	4d\	-ni	4r	.	.	.	.	.	.	.	.	.	.
!	!	!	!	!	!	!	!	!	!	!LO:TX:a:t=dolce:problem=zapisane czerwonym atramentem	!	!	!	!	!	!	!	!	!	!
4r	.	4r	.	(8b-\L	.	.	.	4r	.	8b-\	Be-	.	.	.	.	.	.	.	.	.
.	.	.	.	8dd\J)	.	.	.	.	.	8dd\	-ne-	.	.	.	.	.	.	.	.	.
=68	=68	=68	=68	=68	=68	=68	=68	=68	=68	=68	=68	=68	=68	=68	=68	=68	=68	=68	=68	=68
4r	.	4r	.	(8dd\L	.	1ryy	1ryy	1r	.	(8dd\L	-di-	.	.	.	.	.	.	.	.	1ryy
.	.	.	.	8cc\J)	.	.	.	.	.	8cc\J)	.	.	.	.	.	.	.	.	.	.
4E-\	.	4g/	.	4cc\|	.	.	.	.	.	(8bn\L	-ctus	.	.	.	.	.	.	.	.	.
.	.	.	.	.	.	.	.	.	.	8cc\J)	.	.	.	.	.	.	.	.	.	.
!	!	!	!	!LO:LB:g=original	!	!	!	!	!	!	!	!	!	!	!	!	!	!	!	!
4E-\	.	4g/	.	4cc`\	.	.	.	.	.	8ee-\L	.	.	.	.	.	.	.	.	.	.
.	.	.	.	.	.	.	.	.	.	(8g\	qvi	.	.	.	.	.	.	.	.	.
4En\	.	4g/	.	4b-`\	.	.	.	.	.	8cc\	.	.	.	.	.	.	.	.	.	.
.	.	.	.	.	.	.	.	.	.	8b\J)	.	.	.	.	.	.	.	.	.	.
=69	=69	=69	=69	=69	=69	=69	=69	=69	=69	=69	=69	=69	=69	=69	=69	=69	=69	=69	=69	=69
4F\	.	(2g/	.	(2b-\	.	1ryy	1ryy	2r	.	2b-T\	ve-	00r	00r	.	1r	.	1r	.	1r	1ryy
4C\	.	.	.	.	.	.	.	.	.	.	.	.	.	.	.	.	.	.	.	.
4FF/	.	4f/)	.	4a-\)	.	.	.	4r	.	4a-\	-nit	.	.	.	.	.	.	.	.	.
4r	.	8r	.	8r	.	.	.	8r	.	8r	.	.	.	.	.	.	.	.	.	.
.	.	8an/	.	8cc\	.	.	.	8an\	in	8cc\	in	.	.	.	.	.	.	.	.	.
!	!	!	!	!	!	!	!	!	!	!LO:LB:g=original	!	!	!	!	!	!	!	!	!	!
=70	=70	=70	=70	=70	=70	=70	=70	=70	=70	=70	=70	=70	=70	=70	=70	=70	=70	=70	=70	=70
*tremolo	*	*tremolo	*	*	*	*	*	*	*	*	*	*	*	*	*	*	*	*	*	*
!LO:TX:a:t=P:problem=nad nutą cztery kropki z łukiem	!	!LO:TX:a:t=P:problem=pod nutą cztery małe kreski	!	!	!	!	!	!	!	!LO:TX:a:t=P:problem=nad nutą łuk wyglądający na zakończenie ligatury	!	!	!	!	!	!	!	!	!	!
8F\L	.	8a-/L	.	(8cc'\L	.	1ryy	1ryy	4a-\	no-	4cc\]	no-	.	.	.	2r	.	1a	.	1cc	1ryy
8F\	.	8a-/	.	8cc'\	.	.	.	.	.	.	.	.	.	.	.	.	.	.	.	.
8F\	.	8a-/	.	8cc'\	.	.	.	16f\LL	.	(16a-\LL	.	.	.	.	.	.	.	.	.	.
.	.	.	.	.	.	.	.	(16g\	.	16b-\	.	.	.	.	.	.	.	.	.	.
8F\J	.	8a-/J	.	8cc'\J)	.	.	.	16f\	.	16a-\	.	.	.	.	.	.	.	.	.	.
.	.	.	.	.	.	.	.	16g\JJ)	.	16b-\JJ)	.	.	.	.	.	.	.	.	.	.
*	*	*Xtremolo	*	*	*	*	*	*	*	*	*	*	*	*	*	*	*	*	*	*
!LO:TX:a:t=P:problem=nad nutą cztery kropki z łukiem	!	!	!	!	!	!	!	!	!	!	!	!	!	!	!	!	!	!	!	!
8F\L	.	8a-/L|	.	8cc'\	.	.	.	4a-\	.	4cc\	.	.	.	.	8r	.	.	.	.	.
!	!	!	!	!	!	!	!	!	!	!	!	!	!	!	!LO:TX:a:t=P:problem=piano zapisane czerwonym atramentem	!LO:DY:b:t=p&colon;	!	!	!	!
!	!	!	!	!	!	!	!	!	!	!	!	!	!	!	!LO:SIC:s=8A-\L:v	!	!	!	!	!
8F\	.	8f/|	.	8a-'\L	.	.	.	.	.	.	.	.	.	.	8An\L	p	.	.	.	.
8F\	.	8a-/|	.	8cc'\	.	.	.	4r	.	4r	.	.	.	.	8c\	.	.	.	.	.
!	!	!	!	!	!	!	!	!	!	!	!	!	!	!	!LO:SIC:s=8A-\J:v	!	!	!	!	!
!	!	!	!	!LO:SIC:s=8a-'\J:v	!	!	!	!	!	!	!	!	!	!	!	!	!	!	!	!
8F\J	.	8f/J|	.	8an'\J	.	.	.	.	.	.	.	.	.	.	8A\J	.	.	.	.	.
!	!	!	!	!	!	!	!	!LO:LB:g=original	!	!	!	!	!	!	!	!	!	!	!	!
=71	=71	=71	=71	=71	=71	=71	=71	=71	=71	=71	=71	=71	=71	=71	=71	=71	=71	=71	=71	=71
*	*	*tremolo	*	*tremolo	*	*	*	*	*	*	*	*	*	*	*	*	*	*	*	*
!	!	!LO:TX:a:t=P:problem=pod nutą cztery kropki	!	!LO:TX:a:t=P:problem=cztery kropki z łukiem nad nutą	!	!	!	!	!	!	!	!	!	!	!	!	!	!	!	!
8F\L	.	8a-/L	.	8cc\L	.	1ryy	1ryy	8f\L	.	(8f/L	.	.	.	.	1r	.	1a-	.	1cc	1ryy
8F\	.	8a-/	.	8cc\	.	.	.	(8en\	.	8g/)	.	.	.	.	.	.	.	.	.	.
8F\	.	8a-/	.	8cc\	.	.	.	8f\)	.	8a-'/	.	.	.	.	.	.	.	.	.	.
8F\J	.	8a-/J	.	8cc\J	.	.	.	8g\J	.	8b-'/J	.	.	.	.	.	.	.	.	.	.
!	!	!LO:TX:a:t=P:problem=pod nutą cztery kropki	!	!LO:TX:a:t=P:problem=cztery kropki z łukiem nad nutą	!	!	!	!	!	!	!	!	!	!	!	!	!	!	!	!
8F\L	.	8a-/L	.	8cc\L	.	.	.	8a-\L	.	16cc\LL	.	.	.	.	.	.	.	.	.	.
.	.	.	.	.	.	.	.	.	.	(16b-\	.	.	.	.	.	.	.	.	.	.
8F\	.	8a-/	.	8cc\	.	.	.	8b-\J	.	16cc\)	.	.	.	.	.	.	.	.	.	.
.	.	.	.	.	.	.	.	.	.	16dd\JJ	.	.	.	.	.	.	.	.	.	.
8F\	.	8a-/	.	8cc\	.	.	.	8cc\L	.	8ee-'\L	.	.	.	.	.	.	.	.	.	.
8F\J	.	8a-/J	.	8cc\J	.	.	.	8a-\J	.	8cc'\J	.	.	.	.	.	.	.	.	.	.
!LO:LB:g=original	!	!	!	!	!	!	!	!	!	!	!	!	!	!	!	!	!	!	!	!
=72	=72	=72	=72	=72	=72	=72	=72	=72	=72	=72	=72	=72	=72	=72	=72	=72	=72	=72	=72	=72
*	*	*2\right	*	*	*	*	*	*	*	*	*	*	*	*	*	*	*	*	*	*
!	!	!LO:TX:a:t=P:problem=nad nutą kropki, które zlały się w kreskę	!	!LO:TX:a:t=P:problem=cztery kropki z łukiem nad nutą	!	!	!	!	!	!	!	!	!	!	!	!	!	!	!	!
8F\L	.	8b-\L	.	8dd\L	.	1ryy	1ryy	4b-\	.	4dd\	.	.	.	.	2r	.	1b-	.	1dd	1ryy
8F\	.	8b-\	.	8dd\	.	.	.	.	.	.	.	.	.	.	.	.	.	.	.	.
8F\	.	8b-\	.	8dd\	.	.	.	16d\LL	.	(16b-\LL	.	.	.	.	.	.	.	.	.	.
.	.	.	.	.	.	.	.	16f\	.	16cc\	.	.	.	.	.	.	.	.	.	.
8F\J	.	8b-\J	.	8dd\J	.	.	.	16d\	.	16b-\)	.	.	.	.	.	.	.	.	.	.
.	.	.	.	.	.	.	.	16f\JJ	.	16cc\JJ	.	.	.	.	.	.	.	.	.	.
*	*	*Xtremolo	*	*Xtremolo	*	*	*	*	*	*	*	*	*	*	*	*	*	*	*	*
!	!	!	!	!	!	!	!	!	!	!LO:LB:g=original	!	!	!	!	!	!	!	!	!	!
8F\L	.	8b-\L|	.	8dd'\L	.	.	.	4b-\	.	4dd\	.	.	.	.	8r	.	.	.	.	.
8F\	.	8f\|	.	8b-'\	.	.	.	.	.	.	.	.	.	.	8B-\L	.	.	.	.	.
8F\	.	8b-\|	.	8dd'\	.	.	.	4r	.	4r	.	.	.	.	8d\	.	.	.	.	.
8F\J	.	8f\J|	.	8b-'\J	.	.	.	.	.	.	.	.	.	.	8B-\J	.	.	.	.	.
!	!	!LO:LB:g=original	!	!	!	!	!	!	!	!	!	!	!	!	!	!	!LO:LB:g=original	!	!	!
=73	=73	=73	=73	=73	=73	=73	=73	=73	=73	=73	=73	=73	=73	=73	=73	=73	=73	=73	=73	=73
*	*	*tremolo	*	*tremolo	*	*	*	*	*	*	*	*	*	*	*	*	*	*	*	*
!	!	!LO:TX:a:t=P:problem=cztery małe kreski nad nutą	!	!LO:TX:a:t=P:problem=cztery kropki z łukiem nad nutą	!	!	!	!	!	!	!	!	!	!	!	!	!	!	!	!
8F\L	.	8b-\L	.	8dd\L	.	1ryy	1ryy	8f\L	.	(8f/L	.	00r	00r	.	1r	.	1b-	.	1dd	1ryy
8F\	.	8b-\	.	8dd\	.	.	.	8e-X\	.	8g/)	.	.	.	.	.	.	.	.	.	.
8F\	.	8b-\	.	8dd\	.	.	.	8d\	.	8a-/|	.	.	.	.	.	.	.	.	.	.
!	!	!	!	!	!	!	!	!LO:SIC:s=8a-\J:v	!	!	!	!	!	!	!	!	!	!	!	!
8F\J	.	8b-\J	.	8dd\J	.	.	.	8an\J	.	8b-/J|	.	.	.	.	.	.	.	.	.	.
!	!	!LO:TX:a:t=P:problem=cztery małe kreski nad nutą	!	!LO:TX:a:t=P:problem=cztery kropki z łukiem nad nutą	!	!	!	!	!	!	!	!	!	!	!	!	!	!	!	!
8F\L	.	8b-\L	.	8dd\L	.	.	.	8b-\L	.	8dd\L	.	.	.	.	.	.	.	.	.	.
!	!	!	!	!	!	!	!	!	!	!LO:TUP:a:problem=klamra łukowa, numer	!	!	!	!	!	!	!	!	!	!
8F\	.	8b-\	.	8dd\	.	.	.	8cc\J	.	24ee-\L	.	.	.	.	.	.	.	.	.	.
.	.	.	.	.	.	.	.	.	.	24dd\	.	.	.	.	.	.	.	.	.	.
.	.	.	.	.	.	.	.	.	.	24ee-\JJ	.	.	.	.	.	.	.	.	.	.
8F\	.	8b-\	.	8dd\	.	.	.	8dd\L	.	8ff\L	.	.	.	.	.	.	.	.	.	.
8F\J	.	8b-\J	.	8dd\J	.	.	.	8b-\J	.	8dd\J	.	.	.	.	.	.	.	.	.	.
!	!	!	!	!LO:LB:g=original	!	!	!	!LO:LB:g=original	!	!	!	!	!	!	!	!	!	!	!LO:LB:g=original	!
=74	=74	=74	=74	=74	=74	=74	=74	=74	=74	=74	=74	=74	=74	=74	=74	=74	=74	=74	=74	=74
!	!	!LO:TX:a:t=P:problem=cztery małe kreski nad nutą	!	!LO:TX:a:t=P:problem=cztery kropki z łukiem nad nutą	!	!	!	!	!	!	!	!	!	!	!	!	!	!	!	!
8F\L	.	8cc\L	.	8ee-\L	.	1ryy	1ryy	4cc\	.	4ee-\	.	.	.	.	2r	.	1cc	.	1ee-	1ryy
8F\	.	8cc\	.	8ee-\	.	.	.	.	.	.	.	.	.	.	.	.	.	.	.	.
8F\	.	8cc\	.	8ee-\	.	.	.	(16an\LL	.	16cc\LL	.	.	.	.	.	.	.	.	.	.
.	.	.	.	.	.	.	.	16g\	.	(16bn\	.	.	.	.	.	.	.	.	.	.
8F\J	.	8cc\J	.	8ee-\J	.	.	.	16a\	.	16cc\	.	.	.	.	.	.	.	.	.	.
.	.	.	.	.	.	.	.	16b-\JJ)	.	16dd\JJ)	.	.	.	.	.	.	.	.	.	.
*	*	*Xtremolo	*	*Xtremolo	*	*	*	*	*	*	*	*	*	*	*	*	*	*	*	*
8F\L	.	8cc\L|	.	8ee-'\L	.	.	.	4cc\	.	4ee-\	.	.	.	.	8r	.	.	.	.	.
8F\	.	8a-\|	.	8cc'\	.	.	.	.	.	.	.	.	.	.	8A-\L	.	.	.	.	.
8F\	.	8cc\|	.	8ee-'\	.	.	.	4r	.	4r	.	.	.	.	8c\	.	.	.	.	.
8F\J	.	8a-\J|	.	8cc'\J	.	.	.	.	.	.	.	.	.	.	8A-\J	.	.	.	.	.
!	!	!	!	!	!	!	!	!	!	!LO:LB:g=original	!	!	!	!	!LO:LB:g=original	!	!	!	!	!
=75	=75	=75	=75	=75	=75	=75	=75	=75	=75	=75	=75	=75	=75	=75	=75	=75	=75	=75	=75	=75
*	*	*tremolo	*	*tremolo	*	*	*	*	*	*	*	*	*	*	*	*	*	*	*	*
!	!	!LO:TX:a:t=P:problem=cztery kropki/małe kreski nad nutą	!	!LO:TX:a:t=P:problem=cztery kropki z łukiem nad nutą	!	!	!	!	!	!	!	!	!	!	!	!	!	!	!	!
8F\L	.	8cc\L	.	8ee-\L	.	1ryy	1ryy	(8f\L	.	(8f\L	.	.	.	.	00r	.	1cc	.	1ee-	1ryy
8F\	.	8cc\	.	8ee-\	.	.	.	8en\)	.	8g\)	.	.	.	.	.	.	.	.	.	.
8F\	.	8cc\	.	8ee-\	.	.	.	8f\|	.	8a-\|	.	.	.	.	.	.	.	.	.	.
8F\J	.	8cc\J	.	8ee-\J	.	.	.	8g\J|	.	8b-\J|	.	.	.	.	.	.	.	.	.	.
!	!	!LO:TX:a:t=P:problem=cztery małe kreski nad nutą	!	!LO:TX:a:t=P:problem=cztery kropki z łukiem nad nutą	!	!	!	!	!	!	!	!	!	!	!	!	!	!	!	!
8F\L	.	8cc\L	.	8ee-\L	.	.	.	8a-\L	.	8cc\L	.	.	.	.	.	.	.	.	.	.
!	!	!	!	!	!	!	!	!LO:TUP:a:problem=klamra łukowa, numer	!	!LO:TUP:a:problem=klamra łukowa, numer	!	!	!	!	!	!	!	!	!	!
8F\	.	8cc\	.	8ee-\	.	.	.	24b-\L	.	24dd\L	.	.	.	.	.	.	.	.	.	.
.	.	.	.	.	.	.	.	24a-\	.	24cc\	.	.	.	.	.	.	.	.	.	.
.	.	.	.	.	.	.	.	24b-\JJ	.	24dd\JJ	.	.	.	.	.	.	.	.	.	.
8F\	.	8cc\	.	8ee-\	.	.	.	8cc'\L	.	8ee-'\L	.	.	.	.	.	.	.	.	.	.
8F\J	.	8cc\J	.	8ee-\J	.	.	.	8a-'\J	.	8cc'\J	.	.	.	.	.	.	.	.	.	.
*Xtremolo	*	*Xtremolo	*	*Xtremolo	*	*	*	*	*	*	*	*	*	*	*	*	*	*	*	*
=76	=76	=76	=76	=76	=76	=76	=76	=76	=76	=76	=76	=76	=76	=76	=76	=76	=76	=76	=76	=76
!	!	!	!	!	!	!	!	!LO:TX:a:t=P:problem=repetycja taktu za pomocą kresek taktowych początek i koniec repetycji	!	!	!	!	!	!	!	!	!	!	!	!
8BB-/L	.	(16d/LL	.	(16b-\LL	.	1ryy	1ryy	16b-\LL	.	(16dd\LL	.	.	.	.	.	.	4b-\	.	4dd\	1ryy
.	.	16e-/	.	16cc\	.	.	.	16cc\	.	16ee-\	.	.	.	.	.	.	.	.	.	.
8BB-/	.	16d/	.	16b-\)	.	.	.	16b-\	.	16dd\	.	.	.	.	.	.	.	.	.	.
.	.	16e-/JJ)	.	16cc\JJ	.	.	.	16cc\JJ	.	16ee-\JJ)	.	.	.	.	.	.	.	.	.	.
8D/	.	4.f/	.	4.dd\	.	.	.	4.dd\	.	4.ff\	.	.	.	.	.	.	4r	.	4r	.
8D/J	.	.	.	.	.	.	.	.	.	.	.	.	.	.	.	.	.	.	.	.
!LO:TX:a:t=P:problem=mixed beam	!	!	!	!	!	!	!	!	!	!	!	!	!	!	!	!	!	!	!	!
8F\L	.	.	.	.	.	.	.	.	.	.	.	.	.	.	.	.	2r	.	2r	.
!	!	!	!	!	!	!	!	!LO:LB:g=original	!	!	!	!	!	!	!	!	!	!	!	!
8F\	.	8d/|	.	8b-\	.	.	.	8b-\	.	8bb-\L	.	.	.	.	.	.	.	.	.	.
8FF/	.	8c'/L	.	8a-\L|	.	.	.	8a-'\L	.	8cc\J	.	.	.	.	.	.	.	.	.	.
8FF/J	.	8e-'/J	.	8cc'\J	.	.	.	8cc'\J	.	8ee-\	.	.	.	.	.	.	.	.	.	.
!	!	!	!	!	!	!	!	!	!	!LO:PB:g=original	!	!	!	!	!	!	!	!	!	!
=77	=77	=77	=77	=77	=77	=77	=77	=77	=77	=77	=77	=77	=77	=77	=77	=77	=77	=77	=77	=77
!	!	!	!	!	!	!	!	!LO:TX:a:t=P:problem=takt zapisany repetycją	!	!	!	!	!	!	!	!	!	!	!	!
8BB-/L	.	(16d/LL	.	(16b-\LL	.	1ryy	1ryy	16b-\LLyy	.	(16dd\LL	.	00r	00r	.	.	.	4r	.	4r	1ryy
.	.	16e-/	.	16cc\	.	.	.	16cc\yy	.	16ee-\	.	.	.	.	.	.	.	.	.	.
8BB-/	.	16d/	.	16b-\)	.	.	.	16b-\yy	.	16dd\	.	.	.	.	.	.	.	.	.	.
.	.	16e-/JJ)	.	16cc\JJ	.	.	.	16cc\JJyy	.	16ee-\JJ)	.	.	.	.	.	.	.	.	.	.
8D/	.	4.f/	.	4.dd\	.	.	.	4.dd\yy	.	4.ff\	.	.	.	.	.	.	2b-\	.	(2dd\	.
8D/J	.	.	.	.	.	.	.	.	.	.	.	.	.	.	.	.	.	.	.	.
!LO:TX:a:t=P:problem=mixed beam	!	!	!	!	!	!	!	!	!	!	!	!	!	!	!	!	!	!	!	!
8F\L	.	.	.	.	.	.	.	.	.	.	.	.	.	.	.	.	.	.	.	.
8F\	.	8d'/	.	8b-\	.	.	.	8b-\yy	.	8bb-\	.	.	.	.	.	.	.	.	.	.
8FF/	.	8c/L|	.	8a-\L|	.	.	.	8a-'\Lyy	.	8cc\L|	.	.	.	.	.	.	4a\	.	4ee-\)	.
8FF/J	.	8e-/J|	.	8cc\J|	.	.	.	8cc'\Jyy	.	8ee-'\J	.	.	.	.	.	.	.	.	.	.
!	!	!LO:LB:g=original	!	!	!	!	!	!	!	!	!	!	!	!	!	!	!	!	!	!
=78	=78	=78	=78	=78	=78	=78	=78	=78	=78	=78	=78	=78	=78	=78	=78	=78	=78	=78	=78	=78
4BB-/	.	4r	.	4r	.	1ryy	1ryy	(8b-\L	.	(8dd\L	.	.	.	.	.	.	4b-\	.	4dd\	1ryy
.	.	.	.	.	.	.	.	8d\J)	.	8ff\J)	-mi-	.	.	.	.	.	.	.	.	.
4B-\	.	4a-X/	.	4dd\	.	.	.	2d\	-mi-	2ff\	.	.	.	.	.	.	4r	.	4r	.
4B-\	.	4a-/	.	4dd\	.	.	.	.	.	.	.	.	.	.	.	.	2r	.	2r	.
4B-\	.	4a-/	.	4dd\	.	.	.	(8e-\L	.	8gg\L	.	.	.	.	.	.	.	.	.	.
.	.	.	.	.	.	.	.	8f\J)	-ne	8aa-X\J	-ne	.	.	.	.	.	.	.	.	.
!LO:LB:g=original	!	!	!	!LO:LB:g=original	!	!	!	!	!	!	!	!	!	!	!	!	!	!	!	!
=79	=79	=79	=79	=79	=79	=79	=79	=79	=79	=79	=79	=79	=79	=79	=79	=79	=79	=79	=79	=79
4E-\	.	4g/	.	4ee-\	.	1ryy	1ryy	(8f\L	Do-	(8aa-\L	Do-	.	.	.	00r	.	00r	.	00r	1ryy
.	.	.	.	.	.	.	.	8e-\J)	-mi-	8gg\J)	-mi-	.	.	.	.	.	.	.	.	.
4E-\	.	4g/	.	4ee-\	.	.	.	4e-\	-ni	4gg\	-ni	.	.	.	.	.	.	.	.	.
!	!	!	!	!	!	!	!	!	!	!LO:LB:g=original	!	!	!	!	!	!	!	!	!	!
4r	.	4r	.	4r	.	.	.	8r	.	8r	.	.	.	.	.	.	.	.	.	.
.	.	.	.	.	.	.	.	(8e-\L	in	8gg\L	in	.	.	.	.	.	.	.	.	.
4E-\	.	4g/	.	4ee-\	.	.	.	8g\J)	.	(8bb-\J	.	.	.	.	.	.	.	.	.	.
.	.	.	.	.	.	.	.	8e-\	.	8gg\)	.	.	.	.	.	.	.	.	.	.
!	!	!	!	!	!	!	!	!LO:PB:g=original	!	!	!	!	!	!	!	!	!	!	!	!
=80	=80	=80	=80	=80	=80	=80	=80	=80	=80	=80	=80	=80	=80	=80	=80	=80	=80	=80	=80	=80
4D\	.	4dd\	.	4ff\	.	1ryy	1ryy	4d\	no-	4ff\	no-	.	.	.	.	.	.	.	.	1ryy
!	!	!	!	!	!	!	!	!	!	!LO:TUP:a:problem=klamra łukowa, numer	!	!	!	!	!	!	!	!	!	!
.	.	8qqff/	.	8qqaa-/	.	.	.	.	.	8qaa-/	.	.	.	.	.	.	.	.	.	.
*	*	*Xtuplet	*	*	*	*	*	*	*	*	*	*	*	*	*	*	*	*	*	*
!	!	!LO:TUP:a:problem=klamra łukowa	!	!	!	!	!	!	!	!	!	!	!	!	!	!	!	!	!	!
4E-\	.	12ee-\L	.	8gg\L	.	.	.	8e-\L	.	12gg\L	-mi-	.	.	.	.	.	.	.	.	.
.	.	12dd\	.	.	.	.	.	.	.	12ff\	.	.	.	.	.	.	.	.	.	.
.	.	.	.	16ff\L	.	.	.	8g\J	-mi-	.	.	.	.	.	.	.	.	.	.	.
.	.	12cc\J	.	.	.	.	.	.	.	12ee-\J	.	.	.	.	.	.	.	.	.	.
.	.	.	.	16ee-\JJ	.	.	.	.	.	.	.	.	.	.	.	.	.	.	.	.
4F\	.	4b-/	.	4dd\	.	.	.	4f\	-ne	4dd\	-ne	.	.	.	.	.	.	.	.	.
4FF/	.	4a-/	.	4cc\	.	.	.	4e-\	do-	4cc\	do-	.	.	.	.	.	.	.	.	.
=81	=81	=81	=81	=81	=81	=81	=81	=81	=81	=81	=81	=81	=81	=81	=81	=81	=81	=81	=81	=81
4B-\	.	(2a-/	.	(2cc\	.	1ryy	1ryy	(2e-\	-mi-	(2ccT\	-mi-	00r	1r	.	.	.	.	.	.	1ryy
4F\	.	.	.	.	.	.	.	.	.	.	.	.	.	.	.	.	.	.	.	.
4BB-/	.	4f/)	.	4b-\)|	.	.	.	4d\)	-ni	4b-\)|	-ni	.	.	.	.	.	.	.	.	.
(4E-\	.	4r	.	8cc\L	.	.	.	4e-\	qvi	8cc\L	qvi	.	.	.	.	.	.	.	.	.
.	.	.	.	[8ee-\J	.	.	.	.	.	8ee-\J	.	.	.	.	.	.	.	.	.	.
!	!	!	!	!	!	!	!	!	!	!LO:LB:g=original	!	!	!	!	!	!	!	!	!	!
=82	=82	=82	=82	=82	=82	=82	=82	=82	=82	=82	=82	=82	=82	=82	=82	=82	=82	=82	=82	=82
4F\	.	8f/	.	8ee-\]	.	1ryy	1ryy	4f\	ve-	8ee-\	ve-	.	1f	.	.	.	.	.	.	1ryy
.	.	4f/	.	4dd\	.	.	.	.	.	4dd\	.	.	.	.	.	.	.	.	.	.
4E-\)	.	.	.	.	.	.	.	4e-\	.	.	.	.	.	.	.	.	.	.	.	.
.	.	4f/	.	4cc\	.	.	.	.	.	4cc\	.	.	.	.	.	.	.	.	.	.
4D\	.	.	.	.	.	.	.	4d\	.	.	.	.	.	.	.	.	.	.	.	.
.	.	4f/	.	4b-\	.	.	.	.	.	4b-\	.	.	.	.	.	.	.	.	.	.
4C\	.	.	.	.	.	.	.	4c\	.	.	.	.	.	.	.	.	.	.	.	.
.	.	8f/	.	8an\	.	.	.	.	.	8an\	.	.	.	.	.	.	.	.	.	.
!	!	!	!	!LO:PB:g=original	!	!	!	!	!	!	!	!	!	!	!	!	!	!	!	!
=83	=83	=83	=83	=83	=83	=83	=83	=83	=83	=83	=83	=83	=83	=83	=83	=83	=83	=83	=83	=83
4BB-/	.	8f/	.	(8b-\L	.	1ryy	1ryy	8d\L	.	(8b-\L	.	.	1f	.	00r	.	00r	.	00r	1ryy
.	.	4f/	.	8dd\	.	.	.	8f\	.	8dd\	.	.	.	.	.	.	.	.	.	.
4F\	.	.	.	8cc\	.	.	.	8e-\	.	8cc\)	.	.	.	.	.	.	.	.	.	.
.	.	4f/	.	8dd\J)	.	.	.	8f\J	.	8dd\J	.	.	.	.	.	.	.	.	.	.
4B-\	.	.	.	(8b-\L	.	.	.	4d\	-nit	4b-\	-nit	.	.	.	.	.	.	.	.	.
.	.	4f/	.	8dd\	.	.	.	.	.	.	.	.	.	.	.	.	.	.	.	.
(4E-\	.	.	.	8cc\	.	.	.	4e-\	in	(8cc\L	in	.	.	.	.	.	.	.	.	.
.	.	8f/	.	8ee-\J)	.	.	.	.	.	(8ee-\J)	.	.	.	.	.	.	.	.	.	.
!	!	!LO:LB:g=original	!	!	!	!	!	!LO:LB:g=original	!	!	!	!	!	!	!	!	!	!	!	!
=84	=84	=84	=84	=84	=84	=84	=84	=84	=84	=84	=84	=84	=84	=84	=84	=84	=84	=84	=84	=84
4F\	.	8f/	.	8ee-\	.	1ryy	1ryy	4f\	no-	8ee-\)	no-	.	1f	.	.	.	.	.	.	1ryy
.	.	4f/	.	4dd\	.	.	.	.	.	4dd\	.	.	.	.	.	.	.	.	.	.
4E-\)	.	.	.	.	.	.	.	4e-\	.	.	.	.	.	.	.	.	.	.	.	.
.	.	4f/	.	4cc\	.	.	.	.	.	4cc\	.	.	.	.	.	.	.	.	.	.
4D\	.	.	.	.	.	.	.	4d\	.	.	.	.	.	.	.	.	.	.	.	.
.	.	4f/	.	4b-\	.	.	.	.	.	4b-\	.	.	.	.	.	.	.	.	.	.
4C\	.	.	.	.	.	.	.	4c\	.	.	.	.	.	.	.	.	.	.	.	.
.	.	8f/	.	8a-\	.	.	.	.	.	8a-\	.	.	.	.	.	.	.	.	.	.
!	!	!	!	!	!	!	!	!	!	!LO:LB:g=original	!	!	!	!	!	!	!	!	!	!
=85	=85	=85	=85	=85	=85	=85	=85	=85	=85	=85	=85	=85	=85	=85	=85	=85	=85	=85	=85	=85
4BB-/	.	4d/	.	8b-\L	.	1ryy	1ryy	4d\	.	8b-\L	.	0r	4f\	.	.	.	.	.	.	1ryy
.	.	.	.	(16cc\L	.	.	.	.	.	16cc\L	.	.	.	.	.	.	.	.	.	.
.	.	.	.	16dd\JJ	.	.	.	.	.	16dd\JJ	.	.	.	.	.	.	.	.	.	.
4r	.	4r	.	16ee-\LL	.	.	.	4r	.	16ee-\LL	.	.	4r	.	.	.	.	.	.	.
.	.	.	.	16ff\	.	.	.	.	.	16ff\	.	.	.	.	.	.	.	.	.	.
.	.	.	.	16gg\	.	.	.	.	.	16gg\	.	.	.	.	.	.	.	.	.	.
!	!	!	!	!LO:SIC:s=16aa-\JJ):v	!	!	!	!	!	!	!	!	!	!	!	!	!	!	!	!
.	.	.	.	16aan\JJ)	.	.	.	.	.	16aa-\JJ	.	.	.	.	.	.	.	.	.	.
4r	.	8.dd\L	.	8.bb-\L	.	.	.	4d\	.	8.bb-\L	.	.	2r	.	.	.	.	.	.	.
.	.	16dd\K	.	16ff\K	.	.	.	.	.	16ff\Jk	.	.	.	.	.	.	.	.	.	.
!LO:TX:b:t=Verte Cito	!	!	!	!	!	!	!	!	!	!	!	!	!	!	!	!	!	!	!	!
4A-\	.	8.ee-\	.	8.gg\	.	.	.	8.e-\L	.	8.gg\L	-mi-	.	.	.	.	.	.	.	.	.
.	.	16cc\Jk	.	16ee-\Jk	.	.	.	16g\Jk	-mi-	16ee-\Jk	.	.	.	.	.	.	.	.	.	.
!	!	!	!	!LO:LB:g=original	!	!	!	!	!	!	!	!	!LO:LB:g=original	!	!	!	!	!	!	!
!LO:PB:g=original	!	!	!	!	!	!	!	!	!	!	!	!	!	!	!	!	!	!	!	!
=86	=86	=86	=86	=86	=86	=86	=86	=86	=86	=86	=86	=86	=86	=86	=86	=86	=86	=86	=86	=86
!	!	!	!	!	!	!	!	!	!	!	!	!	!LO:TX:a:t=P:problem=piano zapisane czerwonym atramentem	!	!	!	!	!	!	!
!	!	!	!	!	!	!	!	!	!	!	!	!	!LO:N:vis=0	!LO:DY:a:t=piano	!	!	!	!	!	!
!	!	!	!	!	!	!	!	!	!	!	!	!	!LO:TX:a:t=P:problem=w źródle pauza 0r. Nie można tego dokładnie zakodować, ponieważ w kolejnym takcie w partii fagotu niepotrzebna pauza 00r	!	!	!	!	!	!	!
4B-\	.	4b-/	.	4dd\	.	1ryy	1ryy	4f\	-ne	4dd\	-ne	.	1r	p	.	.	.	.	.	1ryy
4E-\	.	8g/L	.	16ff\LL	.	.	.	8g\L	Do-	16ff\LL	Do-	.	.	.	.	.	.	.	.	.
.	.	.	.	(16ee-\	.	.	.	.	.	(16ee-\	.	.	.	.	.	.	.	.	.	.
.	.	16f/L	.	16dd\	.	.	.	(16f\L	.	16dd\	.	.	.	.	.	.	.	.	.	.
.	.	16e-/JJ	.	16cc\JJ)	.	.	.	16e-\JJ)	.	16cc\JJ)	.	.	.	.	.	.	.	.	.	.
4F\	.	4d/	.	4b-\	.	.	.	4d\	.	4b-\	.	.	.	.	.	.	.	.	.	.
4FF/	.	4c/	.	4a-\	.	.	.	4e-\	-mi-	4a-\	.	.	.	.	.	.	.	.	.	.
!	!	!	!	!	!	!	!	!LO:LB:g=original	!	!LO:LB:g=original	!	!	!	!	!	!	!	!	!	!
=87	=87	=87	=87	=87	=87	=87	=87	=87	=87	=87	=87	=87	=87	=87	=87	=87	=87	=87	=87	=87
!	!	!	!	!	!	!	!	!	!	!	!	!	!	!	!LO:TX:a:t=P:problem=niepotrzebna pauza 00r	!	!	!	!	!
1ryy	.	1ryy	.	1ryy	.	1ryy	1ryy	1ryy	.	1ryy	.	1ryy	1ryy	.	00r	.	1ryy	.	1ryy	1ryy
=88	=88	=88	=88	=88	=88	=88	=88	=88	=88	=88	=88	=88	=88	=88	=88	=88	=88	=88	=88	=88
1ryy	.	1ryy	.	1ryy	.	1ryy	1ryy	1ryy	.	1ryy	.	1ryy	1ryy	.	.	.	1ryy	.	1ryy	1ryy
=89	=89	=89	=89	=89	=89	=89	=89	=89	=89	=89	=89	=89	=89	=89	=89	=89	=89	=89	=89	=89
1ryy	.	1ryy	.	1ryy	.	1ryy	1ryy	1ryy	.	1ryy	.	1ryy	1ryy	.	.	.	1ryy	.	1ryy	1ryy
=90	=90	=90	=90	=90	=90	=90	=90	=90	=90	=90	=90	=90	=90	=90	=90	=90	=90	=90	=90	=90
1ryy	.	1ryy	.	1ryy	.	1ryy	1ryy	1ryy	.	1ryy	.	1ryy	1ryy	.	.	.	1ryy	.	1ryy	1ryy
=91	=91	=91	=91	=91	=91	=91	=91	=91	=91	=91	=91	=91	=91	=91	=91	=91	=91	=91	=91	=91
!	!	!	!	!LO:TX:a:t=P:problem=łuk nad nutą	!	!	!	!	!	!	!	!	!	!	!	!	!	!	!	!
4B-\	.	2e-/	.	2cc\	.	1ryy	1ryy	2e-\	-ni-	(2a-\	-mi-	1r	1ryy	.	1rB	.	1r	.	1r	1ryy
4F\	.	.	.	.	.	.	.	.	.	.	.	.	.	.	.	.	.	.	.	.
!	!	!	!	!LO:TX:a:t=Clarinetti	!	!	!	!	!	!	!	!	!	!	!	!	!	!	!	!
4BB-/	.	4d/	.	4b-\	.	.	.	4d\	.	4b-\)	-ni	.	.	.	.	.	.	.	.	.
4r	.	4r	.	4r	.	.	.	4r	.	4r	.	.	.	.	.	.	.	.	.	.
!	!	!LO:PB:g=original	!	!	!	!	!	!	!	!	!	!	!	!	!	!	!LO:PB:g=original	!	!LO:PB:g=original	!
=92	=92	=92	=92	=92	=92	=92	=92	=92	=92	=92	=92	=92	=92	=92	=92	=92	=92	=92	=92	=92
*	*	*^	*	*^	*	*	*	*	*	*	*	*	*	*	*	*	*	*	*	*
*	*	*cue	*	*	*cue	*	*	*	*	*	*	*	*	*	*	*	*	*	*	*	*	*
!	!	!LO:TX:b:t=1	!	!	!	!	!	!	!	!	!	!	!	!	!	!	!	!	!	!	!	!
!LO:TX:a:t=1.	!	!LO:TX:a:t=Clarinetti	!	!	!	!LO:TX:b:t=1	!	!	!	!	!	!	!	!	!	!	!	!	!	!	!	!
!	!	!	!	!	!	!	!	!	!	!	!	!	!	!	!	!	!	!	!LO:SIC:s=4a-\:v	!	!	!
1r	.	4a-/	1re	.	4cc/	1rg	.	1ryy	1ryy	00r	.	00r	.	2f\	2f\	.	4r	.	4a\|	.	4cc\|	1ryy
!	!	!	!	!	!	!	!	!	!	!	!	!	!	!	!	!	!	!	!LO:SIC:s=8a-\L:v	!	!	!
.	.	8a-/L	.	.	8cc/L	.	.	.	.	.	.	.	.	.	.	.	4F\	.	8a\L|	.	8cc\L|	.
!	!	!	!	!	!	!	!	!	!	!	!	!	!	!	!	!	!	!	!LO:SIC:s=8a-\J:v	!	!	!
.	.	8a-/J	.	.	8cc/J	.	.	.	.	.	.	.	.	.	.	.	.	.	8a\J|	.	8cc\J|	.
!	!	!	!	!	!	!	!	!	!	!	!	!	!	!	!	!	!	!	!LO:TX:a:t=P:problem='piano' zapisane czerwonym atramentem	!	!	!
!	!	!	!	!	!	!	!	!	!	!	!	!	!	!	!	!	!	!	!	!LO:DY:b:t=piano	!	!
!	!	!	!	!	!	!	!	!	!	!	!	!	!	!	!	!	!	!	!LO:SIC:s=(8a-\L:v	!	!	!
.	.	8a-/L	.	.	8cc/L	.	.	.	.	.	.	.	.	4f\	4f\	.	4A-\	.	(8a\L	p	(8cc\L	.
.	.	8b-/	.	.	8dd/	.	.	.	.	.	.	.	.	.	.	.	.	.	8b-\)	.	8dd\)	.
.	.	8b-/	.	.	8dd/	.	.	.	.	.	.	.	.	4f\	4f\	.	4F\	.	(8b-\	.	(8dd\	.
.	.	8cc/J	.	.	8ee-/J	.	.	.	.	.	.	.	.	.	.	.	.	.	8cc\J)	.	8ee-\J)	.
=93	=93	=93	=93	=93	=93	=93	=93	=93	=93	=93	=93	=93	=93	=93	=93	=93	=93	=93	=93	=93	=93	=93
2r	.	8b-/L	2re	.	8dd/L	2re	.	1ryy	1ryy	.	.	.	.	4B-/	4f\	.	4B-\	.	8b-\L	.	8dd\L	1ryy
.	.	8cc/J	.	.	8ee-/J	.	.	.	.	.	.	.	.	.	.	.	.	.	8cc\J	.	8ee-\J	.
.	.	.	.	.	.	.	.	.	.	.	.	.	.	.	.	.	.	.	8qqdd/	.	8qqff/	.
.	.	8cc/L	.	.	8ee-/L	.	.	.	.	.	.	.	.	8B-/L	8f\L	.	4F\	.	8cc\L	.	8ee-\L|	.
.	.	16b-/L	.	.	16dd/L	.	.	.	.	.	.	.	.	8B-/J	8f\J	.	.	.	16b-\L	.	(16dd\L	.
.	.	16cc/JJ	.	.	16ee-/JJ	.	.	.	.	.	.	.	.	.	.	.	.	.	16cc\JJ	.	16ee-\JJ)	.
!	!	!	!	!	!LO:LB:g=original	!	!	!	!	!	!	!	!	!	!	!	!	!	!	!	!	!
4r	.	8dd/	8re	.	8ff/	8r	.	.	.	.	.	.	.	4B-/	4f\	.	4BB-/	.	4dd\	.	4ff\	.
!	!	!	!	!	!	!	!LO:DY:b:t=piano	!	!	!	!	!	!	!	!	!	!	!	!	!	!	!
.	.	8ryy	8f/L|	.	8ryy	8dd\L|	p	.	.	.	.	.	.	.	.	.	.	.	.	.	.	.
!	!LO:DY:b:t=piano	!	!	!	!	!	!	!	!	!	!	!	!	!	!	!	!	!	!	!	!	!
4BB-/	p	4ryy	(8e-/	.	4ryy	(8cc\	.	.	.	.	.	.	.	4r	4r	.	4r	.	4r	.	4r	.
.	.	.	8d/J)	.	.	8b-\J)	.	.	.	.	.	.	.	.	.	.	.	.	.	.	.	.
!	!	!	!	!	!	!	!	!	!	!	!	!	!	!LO:LB:g=original	!	!	!	!	!	!	!	!
=94	=94	=94	=94	=94	=94	=94	=94	=94	=94	=94	=94	=94	=94	=94	=94	=94	=94	=94	=94	=94	=94	=94
4F\	.	4a-/	4c	.	4cc/	4a-\	.	1ryy	1ryy	.	.	.	.	2f\	2f\	.	4r	.	4a-\|	.	4cc\|	1ryy
4r	.	8a-/L	4re	.	8cc/L	4re	.	.	.	.	.	.	.	.	.	.	4F\	.	8a-\L|	.	8cc\L|	.
.	.	8a-/J	.	.	8cc/J	.	.	.	.	.	.	.	.	.	.	.	.	.	8a-\J|	.	8cc\J|	.
2r	.	8a-/L	2re	.	8cc/L	2re	.	.	.	.	.	.	.	4f\	4f\	.	4A-\	.	(8a-\L	.	(8cc\L	.
.	.	8b-/	.	.	8dd/	.	.	.	.	.	.	.	.	.	.	.	.	.	8b-\	.	8dd\)	.
.	.	8b-/	.	.	8dd/	.	.	.	.	.	.	.	.	4f\	4f\	.	4F\	.	(8b-\)	.	(8dd\	.
.	.	8cc/J	.	.	8ee-/J	.	.	.	.	.	.	.	.	.	.	.	.	.	8cc\J)	.	8ee-\J)	.
!	!	!	!	!	!	!	!	!	!	!	!	!	!	!	!	!	!	!	!LO:LB:g=original	!	!LO:LB:g=original	!
=95	=95	=95	=95	=95	=95	=95	=95	=95	=95	=95	=95	=95	=95	=95	=95	=95	=95	=95	=95	=95	=95	=95
2r	.	8b-/L	2rg	.	8dd/L	2rg	.	1ryy	1ryy	.	.	.	.	4B-/	4f\	.	4B-\	.	8b-\L	.	(8dd\L	1ryy
.	.	8cc/J	.	.	8ee-/J	.	.	.	.	.	.	.	.	.	.	.	.	.	8cc\J	.	8ee-\J)	.
.	.	.	.	.	.	.	.	.	.	.	.	.	.	.	.	.	.	.	8qqdd/|	.	8qff/	.
.	.	8cc/L	.	.	8ee-/L	.	.	.	.	.	.	.	.	8B-/L	8f\L	.	4F\	.	8cc\L	.	8ee-\L	.
.	.	16b-/L	.	.	16dd/L	.	.	.	.	.	.	.	.	8B-/J	8f\J	.	.	.	(16b-\L	.	(16dd\L	.
.	.	16cc/JJ	.	.	16ee-/JJ	.	.	.	.	.	.	.	.	.	.	.	.	.	16cc\JJ)	.	16ee-\JJ)	.
!	!	!	!	!	!	!	!	!	!	!	!	!	!	!	!	!	!LO:TX:a:t=P:problem=wydłużona główka nuty, wygląda jakby początkowo pisano ją na wysokości D	!	!	!	!	!
4r	.	4dd/	8r	.	8ff/	8r	.	.	.	.	.	.	.	4B-/	4f\	.	4BB-\	.	4dd\	.	4ff\	.
.	.	.	(8f/L	.	8rgg	8dd'\L	.	.	.	.	.	.	.	.	.	.	.	.	.	.	.	.
4BB-/	.	4ryy	8e-/	.	4rgg	(>8cc\	.	.	.	.	.	.	.	4r	4r	.	4r	.	4r	.	4r	.
.	.	.	8d/J)	.	.	8b-\J)	.	.	.	.	.	.	.	.	.	.	.	.	.	.	.	.
*	*	*Xcue	*	*	*Xcue	*	*	*	*	*	*	*	*	*	*	*	*	*	*	*	*	*
!	!	!	!	!	!LO:LB:g=original	!LO:LB:g=original	!	!	!	!	!	!	!	!	!	!	!	!	!	!	!	!
!	!	!	!	!	!	!	!	!	!	!	!	!	!	!	!	!	!LO:PB:g=original	!	!	!	!	!
*	*	*v	*v	*	*	*	*	*	*	*	*	*	*	*	*	*	*	*	*	*	*	*
*	*	*	*	*v	*v	*	*	*	*	*	*	*	*	*	*	*	*	*	*	*	*
=96	=96	=96	=96	=96	=96	=96	=96	=96	=96	=96	=96	=96	=96	=96	=96	=96	=96	=96	=96	=96
*tremolo	*	*	*	*	*	*	*	*	*	*	*	*	*	*	*tremolo	*	*	*	*	*
!	!LO:DY:b:t=forte	!	!	!	!LO:DY:a:t=forte	!	!	!	!	!	!	!	!	!	!	!	!	!	!	!
8E-\L	f	4e-/	.	4g/	f	1ryy	1ryy	00r	.	00r	.	4e-\	4g\	.	8E-\L	.	4e-/	.	4g/	1ryy
8E-\	.	.	.	.	.	.	.	.	.	.	.	.	.	.	8E-\	.	.	.	.	.
8E-\	.	8e-/L	.	8g/L	.	.	.	.	.	.	.	8e-\L	8g\L	.	8E-\	.	8e-/L	.	8g'/L	.
8E-\J	.	8e-/J	.	8g/J	.	.	.	.	.	.	.	8e-\J	8g\J	.	8E-\J	.	8e-/J	.	8g'/J	.
8C/L	.	(8e-/L	.	(8g/L	.	.	.	.	.	.	.	4e-\	4g\	.	8C/L	.	8e-/L	.	(8g/L	.
8C/	.	8c/)	.	8an/)	.	.	.	.	.	.	.	.	.	.	8C/	.	8c/	.	8a/)	.
8C/	.	(8c/	.	(8a/	.	.	.	.	.	.	.	4f\	4f\	.	8C/	.	8c/	.	(8a/	.
8C/J	.	8d/J)	.	8b-/J)	.	.	.	.	.	.	.	.	.	.	8C/J	.	8d/J	.	8b-/J)	.
*Xtremolo	*	*	*	*	*	*	*	*	*	*	*	*	*	*	*Xtremolo	*	*	*	*	*
!LO:LB:g=original	!	!LO:LB:g=original	!	!	!	!	!	!	!	!	!	!	!LO:LB:g=original	!	!	!	!	!	!	!
=97	=97	=97	=97	=97	=97	=97	=97	=97	=97	=97	=97	=97	=97	=97	=97	=97	=97	=97	=97	=97
4D/	.	8d/L	.	8b-/L	.	1ryy	1ryy	.	.	.	.	4f\	4f\	.	4D/	.	4d/	.	8b-/L	1ryy
.	.	8d/J	.	8f/J	.	.	.	.	.	.	.	.	.	.	.	.	.	.	8f/J	.
4BB-/	.	4d/	.	4f/	.	.	.	.	.	.	.	4B-/	4f\	.	4BB-/	.	4d/	.	4f/	.
4r	.	4r	.	8f/L	.	.	.	.	.	.	.	4r	4r	.	4r	.	4r	.	(8f\L	.
.	.	.	.	(8a-/	.	.	.	.	.	.	.	.	.	.	.	.	.	.	8a-\	.
!	!	!	!	!	!	!	!	!	!	!	!	!	!	!	!	!	!LO:SIC:s=4a-\:v	!	!	!
4A-\	.	4cc\	.	8cc/	.	.	.	.	.	.	.	4f\	4f\	.	4A-\	.	4a\	.	8cc\	.
.	.	.	.	8ee-/J)	.	.	.	.	.	.	.	.	.	.	.	.	.	.	8ee-\J)	.
!	!	!	!	!	!	!	!	!	!	!	!	!	!	!	!	!	!	!	!LO:LB:g=original	!
=98	=98	=98	=98	=98	=98	=98	=98	=98	=98	=98	=98	=98	=98	=98	=98	=98	=98	=98	=98	=98
8B-\L	.	4b-\	.	4dd\	.	1ryy	1ryy	.	.	.	.	4f\	4f\	.	8B-\L	.	4b-\	.	4dd\	1ryy
8B-\	.	.	.	.	.	.	.	.	.	.	.	.	.	.	8B-\	.	.	.	.	.
.	.	.	.	8qqff/	.	.	.	.	.	.	.	.	.	.	.	.	.	.	8qff/	.
8E-\	.	8g/L	.	8ee-\L	.	.	.	.	.	.	.	4e-\	4g\	.	8E-\	.	8g/L	.	8ee-\L	.
8E-\J	.	16f/L	.	16dd\L	.	.	.	.	.	.	.	.	.	.	8E-\J	.	16f/L	.	16dd\L	.
.	.	16e-/JJ	.	16cc\JJ	.	.	.	.	.	.	.	.	.	.	.	.	16e-/JJ	.	16cc\JJ	.
!LO:TX:a:t=P:problem=mixed beam	!	!	!	!	!	!	!	!	!	!	!	!	!	!	!LO:TX:a:t=P:problem=mixed beam	!	!	!	!	!
8F\L	.	4d/	.	4b-/	.	.	.	.	.	.	.	4f\	4f\	.	8F\L	.	4d/	.	4b-\	.
8F\	.	.	.	.	.	.	.	.	.	.	.	.	.	.	8F\	.	.	.	.	.
!	!	!LO:TX:a:t=Clarinetti	!	!	!	!	!	!	!	!	!	!	!	!	!	!	!	!	!	!
!	!	!	!	!	!	!	!	!	!	!	!	!	!	!	!	!	!	!	!LO:SIC:s=4a-\:v	!
8FF/	.	4c/	.	4a-/	.	.	.	.	.	.	.	4f\	4f\	.	8FF/	.	4c/	.	4a\	.
8FF/J	.	.	.	.	.	.	.	.	.	.	.	.	.	.	8FF/J	.	.	.	.	.
!	!	!	!	!LO:LB:g=original	!	!	!	!	!	!	!	!	!	!	!	!	!LO:LB:g=original	!	!	!
=99	=99	=99	=99	=99	=99	=99	=99	=99	=99	=99	=99	=99	=99	=99	=99	=99	=99	=99	=99	=99
*	*	*^	*	*^	*	*	*	*	*	*	*	*	*	*	*	*	*	*	*	*
*	*	*cue	*	*	*cue	*	*	*	*	*	*	*	*	*	*	*	*	*	*	*	*	*
!	!	!	!LO:TX:b:t=1	!	!LO:TX:a:t=Clarinetti	!LO:TX:b:t=1	!	!	!	!	!	!	!	!LO:TX:a:t=P:problem=bardzo słabo widoczna cauda	!	!	!	!	!	!	!	!
00r	.	8dd/L	1re	.	8ff/L	1rg	.	1ryy	1ryy	.	.	.	.	2B-/	2f\	.	4r	.	8dd\L|	.	8ff'\L	1ryy
.	.	8dd/	.	.	8ff/J	.	.	.	.	.	.	.	.	.	.	.	.	.	8dd\|	.	8ff'\	.
.	.	8b-/	.	.	8dd/L	.	.	.	.	.	.	.	.	.	.	.	4BB-/	.	8b-'\	.	8dd'\	.
.	.	8b-/J	.	.	8dd/J	.	.	.	.	.	.	.	.	.	.	.	.	.	8b-'\J	.	8dd'\J	.
.	.	16cc/LL	.	.	16ee-/LL	.	.	.	.	.	.	.	.	4f\	4f\	.	4F\	.	(16cc\LL	.	(16ee-\LL	.
.	.	16b-/	.	.	16dd/	.	.	.	.	.	.	.	.	.	.	.	.	.	16b-\	.	16dd\	.
.	.	16cc/	.	.	16ee-/	.	.	.	.	.	.	.	.	.	.	.	.	.	16cc\)	.	16ee-\	.
.	.	16dd/JJ	.	.	16ff/JJ	.	.	.	.	.	.	.	.	.	.	.	.	.	16dd\JJ	.	16ff\JJ)	.
.	.	8ee-/	.	.	8gg/	.	.	.	.	.	.	.	.	4r	4r	.	4FF/	.	8ee-\	.	8gg\|	.
.	.	16rdd	.	.	16rgg	.	.	.	.	.	.	.	.	.	.	.	.	.	16r	.	16r	.
.	.	16dd/	.	.	16ff/	.	.	.	.	.	.	.	.	.	.	.	.	.	16dd\	.	16ff\|	.
!	!	!	!	!	!	!	!	!	!	!	!	!	!	!LO:PB:g=original	!	!	!	!	!	!	!	!
=100	=100	=100	=100	=100	=100	=100	=100	=100	=100	=100	=100	=100	=100	=100	=100	=100	=100	=100	=100	=100	=100	=100
!	!	!LO:TX:b:t=2	!	!	!	!	!	!	!	!	!	!	!	!	!	!	!	!	!	!	!	!
.	.	8cc/L	1re	.	8ee-/L	2re	.	1ryy	1ryy	00r	.	00r	.	2f\	2f\	.	4r	.	8cc\L|	.	8ee-'\L	1ryy
.	.	8cc/	.	.	8ee-/	.	.	.	.	.	.	.	.	.	.	.	.	.	8cc\|	.	8ee-'\	.
.	.	8a-/	.	.	8cc/	.	.	.	.	.	.	.	.	.	.	.	4F\	.	8a-\|	.	8cc\|	.
.	.	8a-/J	.	.	8cc/J	.	.	.	.	.	.	.	.	.	.	.	.	.	8a-\J|	.	8cc\J|	.
.	.	16b-/LL	.	.	16dd/LL	4re	.	.	.	.	.	.	.	4B-/	4f\	.	4B-\	.	(16b-\LL	.	(16dd\LL	.
.	.	16a-/	.	.	16cc/	.	.	.	.	.	.	.	.	.	.	.	.	.	16a-\	.	16cc\	.
.	.	16b-/	.	.	16dd/	.	.	.	.	.	.	.	.	.	.	.	.	.	16b-\	.	16dd\	.
.	.	16cc/JJ	.	.	16ee-/JJ	.	.	.	.	.	.	.	.	.	.	.	.	.	16cc\JJ)	.	16ee-\JJ)	.
.	.	8dd/	.	.	8ff/	8r	.	.	.	.	.	.	.	4r	4r	.	4BB-/	.	8dd\	.	8ff\	.
.	.	8ree	.	.	8rgg	8cc\	.	.	.	.	.	.	.	.	.	.	.	.	8r	.	8r	.
*	*	*Xcue	*	*	*Xcue	*	*	*	*	*	*	*	*	*	*	*	*	*	*	*	*	*
!	!	!LO:LB:g=original	!	!	!	!	!	!	!	!	!	!	!	!	!	!	!LO:LB:g=original	!	!LO:LB:g=original	!	!LO:LB:g=original	!
*	*	*v	*v	*	*	*	*	*	*	*	*	*	*	*	*	*	*	*	*	*	*	*
*	*	*	*	*v	*v	*	*	*	*	*	*	*	*	*	*	*	*	*	*	*	*
=101	=101	=101	=101	=101	=101	=101	=101	=101	=101	=101	=101	=101	=101	=101	=101	=101	=101	=101	=101	=101
!	!	!	!	!	!LO:DY:b:t=p&colon;	!	!	!	!	!	!	!	!	!	!	!	!	!	!	!
.	.	(8B-/L	.	(8dd\L	p	1ryy	1ryy	.	.	.	.	0r	1f	.	0r	.	0r	.	0r	1ryy
.	.	8d/)	.	8b-\)	.	.	.	.	.	.	.	.	.	.	.	.	.	.	.	.
!	!	!	!	!LO:TX:a:t=dolce	!	!	!	!	!	!	!	!	!	!	!	!	!	!	!	!
.	.	(8c/	.	8a-\|	.	.	.	.	.	.	.	.	.	.	.	.	.	.	.	.
.	.	8e-/J)	.	8f\J|	.	.	.	.	.	.	.	.	.	.	.	.	.	.	.	.
!	!	!	!	!LO:LB:g=original	!	!	!	!	!	!	!	!	!	!	!	!	!	!	!	!
.	.	(8B-/L	.	(8dd\L	.	.	.	.	.	.	.	.	.	.	.	.	.	.	.	.
.	.	8d/)	.	8b-\)	.	.	.	.	.	.	.	.	.	.	.	.	.	.	.	.
.	.	(8c/	.	8a-\|	.	.	.	.	.	.	.	.	.	.	.	.	.	.	.	.
.	.	8e-/J)	.	8f\J|	.	.	.	.	.	.	.	.	.	.	.	.	.	.	.	.
=102	=102	=102	=102	=102	=102	=102	=102	=102	=102	=102	=102	=102	=102	=102	=102	=102	=102	=102	=102	=102
.	.	(8B-/L	.	(8dd\L	.	1ryy	1ryy	.	.	.	.	.	4f\	.	.	.	.	.	.	1ryy
.	.	8d/)	.	8b-\J)	.	.	.	.	.	.	.	.	.	.	.	.	.	.	.	.
.	.	(8e-/	.	(16a-X\LL	.	.	.	.	.	.	.	.	4g\	.	.	.	.	.	.	.
.	.	.	.	16g\)	.	.	.	.	.	.	.	.	.	.	.	.	.	.	.	.
.	.	8c/J)	.	(16ee-\	.	.	.	.	.	.	.	.	.	.	.	.	.	.	.	.
.	.	.	.	16cc\JJ)	.	.	.	.	.	.	.	.	.	.	.	.	.	.	.	.
.	.	4d/	.	4b-\	.	.	.	.	.	.	.	.	4f\	.	.	.	.	.	.	.
!	!	!	!	!LO:TX:a:t=Clarinetti	!	!	!	!	!	!	!	!	!	!	!	!	!	!	!	!
.	.	4c/	.	4an/	.	.	.	.	.	.	.	.	4f\	.	.	.	.	.	.	.
!	!	!	!	!	!	!	!	!	!	!	!	!	!LO:LB:g=original	!	!	!	!	!	!	!
=103	=103	=103	=103	=103	=103	=103	=103	=103	=103	=103	=103	=103	=103	=103	=103	=103	=103	=103	=103	=103
*	*	*^	*	*^	*	*	*	*	*	*	*	*	*	*	*	*	*	*	*	*
*	*	*cue	*	*	*cue	*	*	*	*	*	*	*	*	*	*	*	*	*	*	*	*	*
!	!	!	!LO:TX:b:t=1	!	!	!	!	!	!	!	!	!	!	!	!	!	!	!	!	!	!	!
!	!	!LO:TX:a:t=Clarinetto	!	!	!	!LO:TX:b:t=1:problem=zapisane zwykłym atramentem	!	!	!	!	!	!	!	!	!	!	!	!	!	!	!	!
00r	.	8dd/L	1re	.	8ff/L	1rg	.	1ryy	1ryy	.	.	.	.	2B-/	(2f\	.	4r	.	8dd\L|	.	8ff\L|	1ryy
.	.	8dd/	.	.	8ff/	.	.	.	.	.	.	.	.	.	.	.	.	.	8dd\|	.	8ff'\	.
.	.	8b-/	.	.	8dd/	.	.	.	.	.	.	.	.	.	.	.	4BB-/	.	8b-\|	.	8dd'\	.
.	.	8b-/J	.	.	8dd/J	.	.	.	.	.	.	.	.	.	.	.	.	.	8b-\J|	.	8dd'\J	.
.	.	16cc/LL	.	.	16ee-/LL	.	.	.	.	.	.	.	.	4f\	4f\)|	.	4F\	.	16cc\LL	.	16ee-\LL	.
.	.	16b-/	.	.	16dd/	.	.	.	.	.	.	.	.	.	.	.	.	.	(16b-\	.	(16dd\	.
.	.	16cc/	.	.	16ee-/	.	.	.	.	.	.	.	.	.	.	.	.	.	16cc\	.	16ee-\	.
.	.	16dd/JJ	.	.	16ff/JJ	.	.	.	.	.	.	.	.	.	.	.	.	.	16dd\JJ)	.	16ff\JJ)	.
.	.	8ee-/	.	.	8gg/	.	.	.	.	.	.	.	.	4r	4r	.	4FF/	.	8ee-\	.	8gg\|	.
.	.	16ree	.	.	16rgg	.	.	.	.	.	.	.	.	.	.	.	.	.	16r	.	16r	.
.	.	16dd/	.	.	16ff/	.	.	.	.	.	.	.	.	.	.	.	.	.	16dd\	.	16ff\	.
!	!	!	!	!	!LO:LB:g=original	!LO:LB:g=original	!	!	!	!	!	!	!	!	!	!	!	!	!	!	!	!
=104	=104	=104	=104	=104	=104	=104	=104	=104	=104	=104	=104	=104	=104	=104	=104	=104	=104	=104	=104	=104	=104	=104
!	!	!	!LO:TX:b:t=2	!	!	!	!	!	!	!	!	!	!	!	!	!	!	!	!	!	!	!
.	.	8cc/L	1re	.	8ee-/L	2re	.	1ryy	1ryy	00r	.	00r	.	2f\	2f\	.	4r	.	8cc'\L	.	8ee-\L|	1ryy
.	.	8cc/	.	.	8ee-/	.	.	.	.	.	.	.	.	.	.	.	.	.	8cc'\	.	8ee-\|	.
.	.	8a-/	.	.	8cc/	.	.	.	.	.	.	.	.	.	.	.	4F\	.	8a-'\	.	8cc\|	.
.	.	8a-/J	.	.	8cc/J	.	.	.	.	.	.	.	.	.	.	.	.	.	8a-'\J	.	8cc\J|	.
.	.	16b-/LL	.	.	16dd/LL	4re	.	.	.	.	.	.	.	4B-/	4f\	.	4B-\	.	(16b-\LL	.	(16dd\LL	.
.	.	16a-/	.	.	16cc/	.	.	.	.	.	.	.	.	.	.	.	.	.	16a-\	.	16cc\	.
.	.	16b-/	.	.	16dd/	.	.	.	.	.	.	.	.	.	.	.	.	.	16b-\	.	16dd\	.
.	.	16cc/JJ	.	.	16ee-/JJ	.	.	.	.	.	.	.	.	.	.	.	.	.	16cc\JJ)	.	16ee-\JJ)	.
.	.	4dd/	.	.	4ff/	8r	.	.	.	.	.	.	.	4r	4r	.	4BB-/	.	8dd\	.	8ff\	.
.	.	.	.	.	.	8cc\	.	.	.	.	.	.	.	.	.	.	.	.	8r	.	8r	.
*	*	*Xcue	*	*	*Xcue	*	*	*	*	*	*	*	*	*	*	*	*	*	*	*	*	*
!	!	!LO:LB:g=original	!LO:LB:g=original	!	!	!	!	!	!	!	!	!	!	!	!	!	!	!	!LO:LB:g=original	!	!	!
*	*	*v	*v	*	*	*	*	*	*	*	*	*	*	*	*	*	*	*	*	*	*	*
*	*	*	*	*v	*v	*	*	*	*	*	*	*	*	*	*	*	*	*	*	*	*
=105	=105	=105	=105	=105	=105	=105	=105	=105	=105	=105	=105	=105	=105	=105	=105	=105	=105	=105	=105	=105
.	.	(8B-/L	.	(8dd\L	.	1ryy	1ryy	.	.	.	.	1f	1f	.	0r	.	0r	.	0r	1ryy
!	!	!	!	!LO:TX:a:t=dolce	!	!	!	!	!	!	!	!	!	!	!	!	!	!	!	!
.	.	8d/)	.	8b-\)	.	.	.	.	.	.	.	.	.	.	.	.	.	.	.	.
.	.	(8c/	.	8a-\|	.	.	.	.	.	.	.	.	.	.	.	.	.	.	.	.
.	.	8e-/J)	.	8f\J|	.	.	.	.	.	.	.	.	.	.	.	.	.	.	.	.
.	.	(8B-/L	.	(8dd\L	.	.	.	.	.	.	.	.	.	.	.	.	.	.	.	.
.	.	8d/)	.	8b-\)	.	.	.	.	.	.	.	.	.	.	.	.	.	.	.	.
.	.	(8c/	.	8a-\|	.	.	.	.	.	.	.	.	.	.	.	.	.	.	.	.
.	.	8e-/J)	.	8f\J|	.	.	.	.	.	.	.	.	.	.	.	.	.	.	.	.
=106	=106	=106	=106	=106	=106	=106	=106	=106	=106	=106	=106	=106	=106	=106	=106	=106	=106	=106	=106	=106
.	.	4d/	.	8b-\	.	1ryy	1ryy	.	.	.	.	1r	1r	.	.	.	.	.	.	1ryy
.	.	.	.	4b-\	.	.	.	.	.	.	.	.	.	.	.	.	.	.	.	.
.	.	4r	.	.	.	.	.	.	.	.	.	.	.	.	.	.	.	.	.	.
.	.	.	.	4b-\	.	.	.	.	.	.	.	.	.	.	.	.	.	.	.	.
.	.	2r	.	.	.	.	.	.	.	.	.	.	.	.	.	.	.	.	.	.
.	.	.	.	4b-\	.	.	.	.	.	.	.	.	.	.	.	.	.	.	.	.
.	.	.	.	8b-\	.	.	.	.	.	.	.	.	.	.	.	.	.	.	.	.
!	!	!	!	!LO:LB:g=original	!	!	!	!	!	!	!	!	!	!	!	!	!	!	!LO:LB:g=original	!
=107	=107	=107	=107	=107	=107	=107	=107	=107	=107	=107	=107	=107	=107	=107	=107	=107	=107	=107	=107	=107
!	!	!	!	!	!LO:DY:b:t=ff&colon;	!	!	!	!	!	!	!	!	!	!	!	!	!	!	!
8r	.	8a-X/	.	8dd\	ff	1ryy	1ryy	.	.	.	.	2B-/	2f\	.	8r	.	1b-	.	1ff	1ryy
(8BB-/L	.	4a-/	.	4dd\	.	.	.	.	.	.	.	.	.	.	(8BB-/L	.	.	.	.	.
8D/	.	.	.	.	.	.	.	.	.	.	.	.	.	.	8D/	.	.	.	.	.
8F/J)	.	4a-/	.	4dd\	.	.	.	.	.	.	.	.	.	.	8F/J)	.	.	.	.	.
8E-'/L	.	.	.	.	.	.	.	.	.	.	.	4B-/	4f\	.	8E-'/L	.	.	.	.	.
8D'/	.	4a-/	.	4dd\	.	.	.	.	.	.	.	.	.	.	8D'/	.	.	.	.	.
8C'/	.	.	.	.	.	.	.	.	.	.	.	4B-/	4f\	.	8C'/	.	.	.	.	.
8BB-'/J	.	8a-/	.	8dd\	.	.	.	.	.	.	.	.	.	.	8BB-'/J	.	.	.	.	.
=108	=108	=108	=108	=108	=108	=108	=108	=108	=108	=108	=108	=108	=108	=108	=108	=108	=108	=108	=108	=108
8E-\L	.	(16g/LL	.	(16ee-\LL	.	1ryy	1ryy	0r	.	0r	.	4e-\	4g\	.	8E-/L	.	4g/	.	4ee-\	1ryy
.	.	16bn/)	.	16bn\)	.	.	.	.	.	.	.	.	.	.	.	.	.	.	.	.
8E-\	.	16cc/|	.	16cc\|	.	.	.	.	.	.	.	.	.	.	8E-/	.	.	.	.	.
.	.	16b/JJ|	.	16b\JJ|	.	.	.	.	.	.	.	.	.	.	.	.	.	.	.	.
8C\	.	(16cc\LL	.	(16cc\LL	.	.	.	.	.	.	.	4r	4r	.	8C/	.	4r	.	4r	.
.	.	16dd\)	.	16dd\)	.	.	.	.	.	.	.	.	.	.	.	.	.	.	.	.
8C\J	.	16ee-\|	.	16ee-\|	.	.	.	.	.	.	.	.	.	.	8C/J	.	.	.	.	.
!	!	!	!	!	!	!	!	!	!	!	!	!	!	!	!LO:LB:g=original	!	!	!	!	!
.	.	16dd\JJ|	.	16dd\JJ|	.	.	.	.	.	.	.	.	.	.	.	.	.	.	.	.
8D\L	.	(16ee-\LL	.	(16ee-\LL	.	.	.	.	.	.	.	2r	2r	.	8D/L	.	2r	.	2r	.
.	.	16ff\)	.	16ff\)	.	.	.	.	.	.	.	.	.	.	.	.	.	.	.	.
8D\	.	16gg\|	.	16gg\|	.	.	.	.	.	.	.	.	.	.	8D/	.	.	.	.	.
.	.	16aa-\JJ|	.	16aa-\JJ|	.	.	.	.	.	.	.	.	.	.	.	.	.	.	.	.
8AA-\	.	16bb-X\LL|	.	(16bb-X\LL	.	.	.	.	.	.	.	.	.	.	8AA-/	.	.	.	.	.
.	.	16gg\|	.	16gg\)	.	.	.	.	.	.	.	.	.	.	.	.	.	.	.	.
8AA-\J	.	16ff\|	.	16ff\|	.	.	.	.	.	.	.	.	.	.	8AA-/J	.	.	.	.	.
.	.	16ee-\JJ|	.	16ee-\JJ|	.	.	.	.	.	.	.	.	.	.	.	.	.	.	.	.
!LO:LB:g=original	!	!LO:LB:g=original	!	!	!	!	!	!	!	!	!	!LO:LB:g=original	!	!	!	!	!	!	!	!
=109	=109	=109	=109	=109	=109	=109	=109	=109	=109	=109	=109	=109	=109	=109	=109	=109	=109	=109	=109	=109
8BB-/L	.	8dd\L	.	8dd\L	.	1ryy	1ryy	.	.	.	.	4f\	4f\	.	8BB-/L	.	4b-\	.	4dd\	1ryy
8BB-/	.	8b-\J	.	8ff\J	.	.	.	.	.	.	.	.	.	.	8BB-/	.	.	.	.	.
8E-/	.	16a-/LL	.	16ff\LL|	.	.	.	.	.	.	.	4e-\	4g\	.	8E-/	.	4cc\	.	4ee-\	.
.	.	16g/	.	(16ee-\	.	.	.	.	.	.	.	.	.	.	.	.	.	.	.	.
8E-/J	.	16f/	.	16dd\	.	.	.	.	.	.	.	.	.	.	8E-/J	.	.	.	.	.
.	.	16e-/JJ	.	16cc\JJ)	.	.	.	.	.	.	.	.	.	.	.	.	.	.	.	.
!	!	!	!	!LO:LB:g=original	!	!	!	!	!	!	!	!	!	!	!	!	!	!	!	!
!LO:TX:a:t=P:problem=mixed beam	!	!	!	!	!	!	!	!	!	!	!	!	!	!	!LO:TX:a:t=P:problem=mixed beam	!	!	!	!	!
8F\L	.	4d/	.	4b-/	.	.	.	.	.	.	.	4f\	4f\	.	8F\L	.	4b-\	.	4dd\	.
8F\	.	.	.	.	.	.	.	.	.	.	.	.	.	.	8F\	.	.	.	.	.
8FF/	.	4c/	.	4a-/	.	.	.	.	.	.	.	4f\	4f\	.	8FF/	.	4f/	.	4cc\	.
8FF/J	.	.	.	.	.	.	.	.	.	.	.	.	.	.	8FF/J	.	.	.	.	.
!	!	!	!	!	!	!	!	!	!	!	!	!	!LO:LB:g=original	!	!	!	!	!	!	!
=110	=110	=110	=110	=110	=110	=110	=110	=110	=110	=110	=110	=110	=110	=110	=110	=110	=110	=110	=110	=110
!	!	!	!	!	!	!	!	!LO:TX:b:t=Verte Agnus	!	!LO:TX:b:t=Verte Agnus	!	!	!	!	!	!	!	!	!	!
4BB-/	.	4d/	.	4b-/	.	1ryy	1ryy	1r	.	1r	.	4B-/	4f\	.	4BB-/	.	4d/	.	4b-\	1ryy
4r	.	4r	.	4r	.	.	.	.	.	.	.	4r	4r	.	4r	.	4r	.	4r	.
!	!	!	!	!	!	!	!	!	!	!	!	!	!	!	!LO:TX:b:t=Verte Agnus	!	!LO:TX:b:t=Verte Agnus	!	!LO:TX:b:t=Verte Cito Agnus.	!
!LO:TX:a:t=106.:problem=zapisane za kreską taktową	!	!	!	!	!	!	!	!	!	!	!	!	!	!	!LO:TX:b:t=Correctum:problem=zapisane czerwonym atramentem	!	!	!	!	!
2r	.	2r	.	2r	.	.	.	.	.	.	.	2r	2r	.	2r	.	2r	.	2r	.
==	==	==	==	==	==	==	==	==	==	==	==	==	==	==	==	==	==	==	==	==
*-	*-	*-	*-	*-	*-	*-	*-	*-	*-	*-	*-	*-	*-	*-	*-	*-	*-	*-	*-	*-
!!!system-decoration: [(s1,s2,s3,s4)][(s5,s6)][(s7,s8,s9,s10)][(s11,s12)]s13
!!!RDF**kern: > = above
!!!RDF**kern: < = below
!!!ENC: Berenika Jozajtis
!!!END: 2020-06-29
!!!ENC: Zofia Niedbalska
!!!END: 2020-12-05
!!!RDF**kern: | = vertical stroke
